; Generated with MatterSlice 1.0
; filamentDiameter = 3
; extrusionWidth = 0.5
; firstLayerExtrusionWidth = 0.5
; layerThickness = 0.4
; firstLayerThickness = 0.5
; automatic settings before start_gcode
G21 ; set units to millimeters
M107 ; fan off
M190 S70 ; wait for bed temperature to be reached
M104 T0 S200 ; start heating extruder 1
T0 ; set the active extruder to 0
; settings from start_gcode
G28 ; home all axes
G1 Z5 F5000 ; lift nozzle
; automatic settings after start_gcode
M109 T0 S200 ; wait for extruder 1 to reach temperature
T0 ; set the active extruder to 0
G90 ; use absolute coordinates
G92 E0 ; reset the expected extruder position
M82 ; use absolute distance for extrusion
; Layer count: 154
; LAYER:0
M107
G0 F7800 X101.379 Y81.541 Z0.5
; TYPE:SKIRT
G1 F1800 E0
G1 F1080 X102.685 Y81.684 E0.04647
G1 X104.009 Y81.934 E0.09412
G1 X104.797 Y82.148 E0.123
G1 X105.699 Y82.416 E0.15628
G1 X107.155 Y82.985 E0.21157
G1 X108.392 Y83.599 E0.26041
G1 X109.549 Y84.293 E0.30813
G1 X110.411 Y84.907 E0.34556
G1 X111.109 Y85.448 E0.37679
G1 X112.091 Y86.328 E0.42343
G1 X113.084 Y87.359 E0.47406
G1 X113.89 Y88.348 E0.51918
G1 X114.81 Y89.655 E0.57571
G1 X115.532 Y90.894 E0.62643
G1 X116.122 Y92.101 E0.67394
G1 X116.488 Y92.971 E0.70732
G1 X116.88 Y94.096 E0.74946
G1 X117.26 Y95.524 E0.80172
G1 X117.481 Y96.824 E0.84836
G1 X117.609 Y98.188 E0.89681
G1 X117.637 Y99.767 E0.95267
G1 X117.54 Y101.214 E1.00396
G1 X117.344 Y102.62 E1.05416
G1 X117.113 Y103.719 E1.09387
G1 X116.871 Y104.69 E1.12926
G1 X116.386 Y106.211 E1.18571
G1 X115.912 Y107.394 E1.23077
G1 X115.297 Y108.718 E1.28239
G1 X114.608 Y109.971 E1.33294
G1 X114.22 Y110.607 E1.35927
G1 X113.594 Y111.528 E1.39864
G1 X112.648 Y112.762 E1.45361
G1 X111.716 Y113.798 E1.50287
G1 X110.746 Y114.735 E1.55055
G1 X109.849 Y115.496 E1.59212
G1 X108.8 Y116.272 E1.63824
G1 X107.688 Y116.976 E1.68476
G1 X106.507 Y117.607 E1.73209
G1 X105.129 Y118.201 E1.78513
G1 X103.813 Y118.639 E1.83415
G1 X102.63 Y118.924 E1.87715
G1 X101.423 Y119.112 E1.92032
G1 X100.127 Y119.194 E1.96621
G1 X98.643 Y119.122 E2.01872
G1 X97.295 Y118.912 E2.06693
G1 X96.006 Y118.588 E2.1139
G1 X94.728 Y118.149 E2.16165
G1 X93.279 Y117.504 E2.21769
G1 X92.057 Y116.828 E2.26704
G1 X90.91 Y116.073 E2.31556
G1 X89.798 Y115.215 E2.36518
G1 X88.518 Y114.044 E2.42649
G1 X87.532 Y112.978 E2.4778
G1 X86.639 Y111.864 E2.52824
G1 X85.89 Y110.788 E2.57456
G1 X85.167 Y109.595 E2.62385
G1 X84.525 Y108.366 E2.67284
G1 X83.959 Y107.1 E2.72184
G1 X83.495 Y105.861 E2.76859
G1 X83.224 Y105.037 E2.79922
G1 X82.914 Y103.868 E2.84195
G1 X82.604 Y102.345 E2.89688
G1 X82.43 Y100.971 E2.94583
G1 X82.369 Y99.84 E2.98585
G1 X82.364 Y98.65 E3.0279
G1 X82.455 Y97.322 E3.07494
G1 X82.653 Y95.943 E3.12418
G1 X82.959 Y94.617 E3.17228
G1 X83.355 Y93.369 E3.21855
G1 X83.665 Y92.603 E3.24774
G1 X84.07 Y91.672 E3.28362
G1 X84.697 Y90.468 E3.3316
G1 X85.412 Y89.309 E3.37973
G1 X86.178 Y88.249 E3.42596
G1 X86.662 Y87.652 E3.45311
G1 X87.473 Y86.757 E3.4958
G1 X88.383 Y85.883 E3.5404
G1 X89.366 Y85.068 E3.58554
G1 X90.589 Y84.2 E3.63856
G1 X91.602 Y83.601 E3.68017
G1 X92.797 Y83.006 E3.72737
G1 X94.052 Y82.499 E3.77522
G1 X95.371 Y82.087 E3.82409
G1 X96.95 Y81.741 E3.88125
G1 X98.542 Y81.545 E3.93798
G1 X99.996 Y81.483 E3.98945
G1 X101.379 Y81.541 E4.0384
G0 F7800 X89.236 Y96.325
; TYPE:WALL-OUTER
G1 F1080 X89.472 Y95.582 E4.06594
G1 X89.935 Y94.483 E4.10809
G1 X90.358 Y93.672 E4.14041
G1 X90.82 Y92.922 E4.17153
G1 X91.345 Y92.196 E4.20319
G1 X91.592 Y91.891 E4.21704
G1 X92.143 Y91.284 E4.24601
G1 X92.713 Y90.737 E4.27393
G1 X93.324 Y90.23 E4.30198
G1 X94.138 Y89.652 E4.33727
G1 X94.705 Y89.317 E4.36055
G1 X95.464 Y88.939 E4.39052
G1 X96.24 Y88.626 E4.4201
G1 X97.047 Y88.374 E4.44999
G1 X98.042 Y88.156 E4.48601
G1 X99.075 Y88.029 E4.52281
G1 X99.999 Y87.989 E4.55552
G1 X100.884 Y88.026 E4.58685
G1 X101.73 Y88.119 E4.61695
G1 X102.557 Y88.275 E4.64672
G1 X103.588 Y88.57 E4.68465
G1 X104.523 Y88.936 E4.72016
G1 X105.271 Y89.307 E4.74969
G1 X105.983 Y89.734 E4.77905
G1 X106.53 Y90.123 E4.80279
G1 X106.948 Y90.447 E4.8215
G1 X107.581 Y91.014 E4.85155
G1 X108.208 Y91.666 E4.88354
G1 X108.713 Y92.285 E4.9118
G1 X109.332 Y93.165 E4.94985
G1 X109.791 Y93.952 E4.98207
G1 X110.204 Y94.797 E5.01534
G1 X110.415 Y95.297 E5.03453
G1 X110.659 Y95.995 E5.06068
G1 X110.904 Y96.917 E5.09442
G1 X111.031 Y97.664 E5.12122
G1 X111.114 Y98.55 E5.15269
G1 X111.133 Y99.618 E5.19047
G1 X111.071 Y100.539 E5.22312
G1 X110.937 Y101.499 E5.2574
G1 X110.777 Y102.26 E5.28489
G1 X110.612 Y102.922 E5.30901
G1 X110.265 Y104.01 E5.34939
G1 X109.945 Y104.81 E5.37985
G1 X109.492 Y105.785 E5.41786
G1 X108.982 Y106.713 E5.4553
G1 X108.759 Y107.079 E5.47044
G1 X108.319 Y107.725 E5.49806
G1 X107.651 Y108.597 E5.53689
G1 X107.04 Y109.277 E5.5692
G1 X106.382 Y109.913 E5.60154
G1 X105.807 Y110.401 E5.62818
G1 X105.121 Y110.909 E5.65835
G1 X104.422 Y111.351 E5.68757
G1 X103.683 Y111.746 E5.71717
G1 X102.807 Y112.123 E5.75087
G1 X102.024 Y112.384 E5.78003
G1 X101.365 Y112.543 E5.80397
G1 X100.724 Y112.642 E5.82687
G1 X100.077 Y112.683 E5.84977
G1 X99.299 Y112.645 E5.87728
G1 X98.585 Y112.534 E5.90279
G1 X97.855 Y112.351 E5.92937
G1 X97.114 Y112.097 E5.95703
G1 X96.184 Y111.682 E5.993
G1 X95.418 Y111.259 E6.0239
G1 X94.692 Y110.781 E6.05459
G1 X93.981 Y110.232 E6.08631
G1 X93.105 Y109.43 E6.12827
G1 X92.459 Y108.732 E6.16186
G1 X91.85 Y107.973 E6.19622
G1 X91.347 Y107.249 E6.22735
G1 X90.834 Y106.403 E6.2623
G1 X90.375 Y105.525 E6.29729
G1 X89.977 Y104.634 E6.33176
G1 X89.631 Y103.711 E6.36657
G1 X89.457 Y103.181 E6.38626
G1 X89.244 Y102.377 E6.41563
G1 X89.022 Y101.286 E6.45497
G1 X88.909 Y100.393 E6.48676
G1 X88.868 Y99.644 E6.51326
G1 X88.865 Y98.852 E6.54123
G1 X88.923 Y98.004 E6.57126
G1 X89.046 Y97.147 E6.60184
G1 X89.236 Y96.325 E6.63165
G0 F7800 X89.717 Y96.466
; TYPE:WALL-INNER
G1 F1080 X89.948 Y95.736 E6.65869
G1 X90.392 Y94.687 E6.69895
G1 X90.788 Y93.928 E6.7292
G1 X91.238 Y93.197 E6.75953
G1 X91.736 Y92.509 E6.78954
G1 X91.981 Y92.206 E6.80329
G1 X92.489 Y91.646 E6.83
G1 X93.054 Y91.104 E6.85767
G1 X93.628 Y90.627 E6.88404
G1 X94.411 Y90.071 E6.91799
G1 X94.939 Y89.759 E6.93966
G1 X95.68 Y89.39 E6.96892
G1 X96.404 Y89.098 E6.99652
G1 X97.166 Y88.86 E7.02474
G1 X98.135 Y88.648 E7.05982
G1 X99.12 Y88.527 E7.09491
G1 X99.999 Y88.489 E7.12603
G1 X100.838 Y88.524 E7.15573
G1 X101.66 Y88.615 E7.18498
G1 X102.436 Y88.761 E7.2129
G1 X103.421 Y89.042 E7.24913
G1 X104.319 Y89.393 E7.28323
G1 X105.035 Y89.748 E7.3115
G1 X105.712 Y90.155 E7.33943
G1 X106.239 Y90.529 E7.36229
G1 X106.623 Y90.828 E7.3795
G1 X107.223 Y91.364 E7.40796
G1 X107.845 Y92.011 E7.4397
G1 X108.308 Y92.579 E7.46562
G1 X108.915 Y93.441 E7.50291
G1 X109.352 Y94.192 E7.53364
G1 X109.748 Y95.001 E7.56549
G1 X109.95 Y95.483 E7.58398
G1 X110.182 Y96.146 E7.60882
G1 X110.414 Y97.019 E7.64077
G1 X110.535 Y97.731 E7.66631
G1 X110.615 Y98.58 E7.69647
G1 X110.633 Y99.601 E7.73259
G1 X110.573 Y100.489 E7.76406
G1 X110.444 Y101.413 E7.79705
G1 X110.289 Y102.153 E7.82379
G1 X110.131 Y102.789 E7.84696
G1 X109.796 Y103.838 E7.88589
G1 X109.483 Y104.618 E7.9156
G1 X109.047 Y105.557 E7.9522
G1 X108.555 Y106.452 E7.98831
G1 X108.334 Y106.814 E8.00329
G1 X107.92 Y107.423 E8.02932
G1 X107.257 Y108.288 E8.06784
G1 X106.671 Y108.939 E8.0988
G1 X106.049 Y109.541 E8.12938
G1 X105.5 Y110.006 E8.1548
G1 X104.842 Y110.493 E8.18373
G1 X104.163 Y110.923 E8.21212
G1 X103.468 Y111.294 E8.23996
G1 X102.636 Y111.653 E8.27197
G1 X101.878 Y111.905 E8.30019
G1 X101.268 Y112.052 E8.32235
G1 X100.67 Y112.145 E8.34372
G1 X100.07 Y112.183 E8.36494
G1 X99.353 Y112.148 E8.3903
G1 X98.683 Y112.044 E8.41424
G1 X98.003 Y111.873 E8.43899
G1 X97.295 Y111.63 E8.46542
G1 X96.402 Y111.232 E8.49995
G1 X95.676 Y110.831 E8.52924
G1 X94.986 Y110.376 E8.55842
G1 X94.302 Y109.849 E8.58891
G1 X93.456 Y109.075 E8.62941
G1 X92.842 Y108.411 E8.66135
G1 X92.252 Y107.674 E8.69469
G1 X91.76 Y106.967 E8.7251
G1 X91.271 Y106.161 E8.7584
G1 X90.83 Y105.316 E8.79206
G1 X90.435 Y104.432 E8.82626
G1 X90.106 Y103.555 E8.85934
G1 X89.936 Y103.039 E8.87851
G1 X89.733 Y102.272 E8.90653
G1 X89.515 Y101.203 E8.94508
G1 X89.407 Y100.344 E8.97566
G1 X89.368 Y99.627 E9.00101
G1 X89.365 Y98.874 E9.02761
G1 X89.421 Y98.055 E9.05661
G1 X89.538 Y97.237 E9.0858
G1 X89.717 Y96.466 E9.11376
G0 F7800 X90.201 Y96.591
G1 F1080 X90.415 Y95.916 E9.13877
G1 X90.843 Y94.903 E9.17763
G1 X91.225 Y94.17 E9.20683
G1 X91.649 Y93.482 E9.23539
G1 X92.134 Y92.811 E9.26464
G1 X92.352 Y92.542 E9.27686
G1 X92.86 Y91.982 E9.30357
G1 X93.38 Y91.483 E9.32904
G1 X93.936 Y91.022 E9.35456
G1 X94.673 Y90.498 E9.38652
G1 X95.192 Y90.191 E9.40783
G1 X95.877 Y89.851 E9.43486
G1 X96.579 Y89.567 E9.46163
G1 X97.296 Y89.343 E9.48819
G1 X98.207 Y89.144 E9.52116
G1 X99.165 Y89.026 E9.5553
G1 X99.999 Y88.99 E9.58482
G1 X100.808 Y89.024 E9.61346
G1 X101.591 Y89.11 E9.64132
G1 X102.325 Y89.248 E9.66773
G1 X103.262 Y89.516 E9.7022
G1 X104.119 Y89.851 E9.73474
G1 X104.784 Y90.181 E9.761
G1 X105.442 Y90.576 E9.78814
G1 X105.93 Y90.923 E9.80932
G1 X106.307 Y91.215 E9.82619
G1 X106.882 Y91.73 E9.85349
G1 X107.461 Y92.333 E9.88305
G1 X107.911 Y92.884 E9.90821
G1 X108.494 Y93.712 E9.94403
G1 X108.912 Y94.429 E9.97338
G1 X109.294 Y95.212 E10.0042
G1 X109.482 Y95.659 E10.02135
G1 X109.705 Y96.297 E10.04525
G1 X109.924 Y97.12 E10.07537
G1 X110.038 Y97.795 E10.09958
G1 X110.115 Y98.609 E10.1285
G1 X110.132 Y99.589 E10.16316
G1 X110.075 Y100.442 E10.1934
G1 X109.952 Y101.328 E10.22503
G1 X109.801 Y102.044 E10.2509
G1 X109.653 Y102.637 E10.27251
G1 X109.321 Y103.679 E10.31118
G1 X109.027 Y104.414 E10.33916
G1 X108.599 Y105.334 E10.37504
G1 X108.122 Y106.201 E10.41002
G1 X107.919 Y106.535 E10.42382
G1 X107.511 Y107.134 E10.44944
G1 X106.877 Y107.962 E10.4863
G1 X106.312 Y108.59 E10.51615
G1 X105.708 Y109.174 E10.54584
G1 X105.191 Y109.612 E10.56978
G1 X104.554 Y110.084 E10.59779
G1 X103.914 Y110.489 E10.62455
G1 X103.248 Y110.845 E10.65122
G1 X102.452 Y111.188 E10.68185
G1 X101.747 Y111.422 E10.70809
G1 X101.172 Y111.561 E10.72897
G1 X100.617 Y111.647 E10.7488
G1 X100.072 Y111.682 E10.76808
G1 X99.398 Y111.649 E10.79191
G1 X98.785 Y111.553 E10.81381
G1 X98.143 Y111.393 E10.83717
G1 X97.484 Y111.166 E10.86178
G1 X96.624 Y110.783 E10.89503
G1 X95.935 Y110.402 E10.92283
G1 X95.269 Y109.964 E10.95097
G1 X94.631 Y109.471 E10.97944
G1 X93.809 Y108.718 E11.01881
G1 X93.219 Y108.082 E11.04945
G1 X92.651 Y107.373 E11.08153
G1 X92.182 Y106.699 E11.11052
G1 X91.705 Y105.912 E11.14302
G1 X91.276 Y105.091 E11.17573
G1 X90.904 Y104.258 E11.20795
G1 X90.574 Y103.378 E11.24115
G1 X90.416 Y102.896 E11.25904
G1 X90.221 Y102.161 E11.28589
G1 X90.009 Y101.12 E11.32342
G1 X89.905 Y100.296 E11.35276
G1 X89.868 Y99.625 E11.37649
G1 X89.865 Y98.893 E11.40234
G1 X89.919 Y98.106 E11.43021
G1 X90.03 Y97.328 E11.45797
G1 X90.201 Y96.591 E11.48469
G0 F7800 X90.538 Y96.902
; TYPE:BOTTOM-FILL
G1 F1080 X103.753 Y110.117 E12.14567
G0 F7800 X104.186 Y109.843
G1 F1080 X90.695 Y96.352 E12.82041
G0 F7800 X90.883 Y95.833
G1 F1080 X104.6 Y109.55 E13.5065
G0 F7800 X105.003 Y109.245
G1 F1080 X91.093 Y95.336 E14.20217
G0 F7800 X91.318 Y94.854
G1 F1080 X105.386 Y108.922 E14.90582
G0 F7800 X105.748 Y108.576
G1 F1080 X91.56 Y94.388 E15.61542
G0 F7800 X91.829 Y93.951
G1 F1080 X106.102 Y108.223 E16.32929
G0 F7800 X106.437 Y107.851
G1 F1080 X92.11 Y93.524 E17.04585
G0 F7800 X92.406 Y93.113
G1 F1080 X106.755 Y107.462 E17.76355
G0 F7800 X107.062 Y107.062
G1 F1080 X92.725 Y92.725 E18.4806
G0 F7800 X93.06 Y92.353
G1 F1080 X107.357 Y106.65 E19.1957
G0 F7800 X107.638 Y106.224
G1 F1080 X93.415 Y92.001 E19.90705
G0 F7800 X93.786 Y91.665
G1 F1080 X107.898 Y105.776 E20.61287
G0 F7800 X108.148 Y105.32
G1 F1080 X94.173 Y91.344 E21.31184
G0 F7800 X94.586 Y91.05
G1 F1080 X108.383 Y104.847 E22.00194
G0 F7800 X108.608 Y104.365
G1 F1080 X95.006 Y90.764 E22.6822
G0 F7800 X95.455 Y90.506
G1 F1080 X108.815 Y103.865 E23.35041
G0 F7800 X109.005 Y103.348
G1 F1080 X95.928 Y90.272 E24.00442
G0 F7800 X96.425 Y90.061
G1 F1080 X109.176 Y102.812 E24.64219
G0 F7800 X109.332 Y102.261
G1 F1080 X96.943 Y89.872 E25.26181
G0 F7800 X97.488 Y89.709
G1 F1080 X109.466 Y101.688 E25.86094
G0 F7800 X109.58 Y101.095
G1 F1080 X98.067 Y89.582 E26.43674
G0 F7800 X98.68 Y89.487
G1 F1080 X109.666 Y100.474 E26.98626
G0 F7800 X109.716 Y99.816
G1 F1080 X99.319 Y89.42 E27.50622
G0 F7800 X99.997 Y89.391
G1 F1080 X109.723 Y99.116 E27.99267
G0 F7800 X109.69 Y98.376
G1 F1080 X100.735 Y89.422 E28.4405
G0 F7800 X101.526 Y89.505
G1 F1080 X109.594 Y97.573 E28.84404
G0 F7800 X109.386 Y96.658
G1 F1080 X102.418 Y89.69 E29.19251
G0 F7800 X103.457 Y90.022
G1 F1080 X109.013 Y95.578 E29.47041
G0 F7800 X108.274 Y94.132
G0 X108.274 Y94.132
G1 F1080 X104.798 Y90.656 E29.64422
G0 F7800 X90.412 Y97.483
G0 X90.412 Y97.483
G1 F1080 X103.294 Y110.365 E30.28855
G0 F7800 X102.816 Y110.595
G1 F1080 X90.323 Y98.101 E30.91339
G0 F7800 X90.274 Y98.76
G1 F1080 X102.322 Y110.807 E31.51598
G0 F7800 X101.791 Y110.983
G1 F1080 X90.267 Y99.459 E32.09233
G0 F7800 X90.3 Y100.199
G1 F1080 X101.233 Y111.133 E32.6392
G0 F7800 X100.632 Y111.239
G1 F1080 X90.396 Y101.003 E33.15113
G0 F7800 X90.574 Y101.887
G1 F1080 X99.961 Y111.275 E33.62067
G0 F7800 X99.19 Y111.21
G1 F1080 X90.818 Y102.839 E34.03934
G0 F7800 X91.211 Y103.939
G1 F1080 X98.287 Y111.015 E34.39327
G0 F7800 X97.139 Y110.574
G1 F1080 X91.805 Y105.24 E34.66001
G0 F7800 X92.925 Y107.067
G0 X92.925 Y107.067
G1 F1080 X95.465 Y109.607 E34.78705
; LAYER:1
M106 S89
G0 F7800 X89.02 Y97.485 Z0.9
G0 X89.02 Y97.485
G0 X88.677 Y97.418
G0 X89.172 Y97.498
; TYPE:WALL-INNER
G1 F1206 X89.456 Y96.227 E34.82387
G1 X89.756 Y95.372 E34.84949
G1 X90.107 Y94.552 E34.8747
G1 X90.532 Y93.729 E34.90088
G1 X91.082 Y92.863 E34.92988
G1 X91.446 Y92.362 E34.94738
G1 X91.92 Y91.775 E34.96871
G1 X92.103 Y91.572 E34.97642
G1 X92.829 Y90.861 E35.00515
G1 X93.72 Y90.132 E35.03771
G1 X94.059 Y89.898 E35.04934
G1 X94.809 Y89.436 E35.07425
G1 X96.016 Y88.875 E35.1119
G1 X97.191 Y88.49 E35.14688
G1 X97.676 Y88.379 E35.16095
G1 X98.198 Y88.282 E35.17597
G1 X98.889 Y88.191 E35.19568
G1 X99.998 Y88.147 E35.22708
G1 X101.092 Y88.19 E35.25806
G1 X101.552 Y88.241 E35.27116
G1 X102.563 Y88.431 E35.30026
G1 X103.483 Y88.701 E35.32739
G1 X103.972 Y88.872 E35.34205
G1 X105.06 Y89.368 E35.37588
G1 X105.989 Y89.933 E35.40665
G1 X106.905 Y90.632 E35.43925
G1 X108.04 Y91.735 E35.48403
G1 X108.644 Y92.485 E35.51127
G1 X109.376 Y93.584 E35.54864
G1 X109.701 Y94.186 E35.56799
G1 X109.992 Y94.778 E35.58666
G1 X110.153 Y95.159 E35.59836
G1 X110.509 Y96.12 E35.62736
G1 X110.711 Y96.962 E35.65186
G1 X110.881 Y97.858 E35.67766
G1 X110.945 Y98.739 E35.70265
G1 X110.967 Y99.607 E35.72722
G1 X110.908 Y100.438 E35.75079
G1 X110.806 Y101.316 E35.7758
G1 X110.582 Y102.375 E35.80642
G1 X110.459 Y102.879 E35.82109
G1 X110.104 Y103.963 E35.85335
G1 X109.944 Y104.379 E35.86596
G1 X109.619 Y105.134 E35.8892
G1 X109.35 Y105.698 E35.90687
G1 X108.711 Y106.832 E35.94368
G1 X108.125 Y107.694 E35.97316
G1 X107.583 Y108.402 E35.99837
G1 X106.942 Y109.11 E36.02538
G1 X106.401 Y109.648 E36.04694
G1 X105.748 Y110.2 E36.07111
G1 X105.132 Y110.67 E36.09301
G1 X104.315 Y111.191 E36.12041
G1 X103.635 Y111.557 E36.14223
G1 X102.838 Y111.901 E36.16677
G1 X101.966 Y112.196 E36.19279
G1 X101.391 Y112.336 E36.2095
G1 X100.681 Y112.451 E36.22983
G1 X100.047 Y112.482 E36.24776
G1 X99.328 Y112.453 E36.26809
G1 X98.644 Y112.346 E36.28765
G1 X97.931 Y112.168 E36.3084
G1 X97.012 Y111.846 E36.33592
G1 X96.283 Y111.519 E36.35849
G1 X95.552 Y111.113 E36.38211
G1 X94.719 Y110.569 E36.41022
G1 X93.932 Y109.941 E36.43867
G1 X93.316 Y109.383 E36.46215
G1 X92.472 Y108.471 E36.49727
G1 X92.022 Y107.9 E36.5178
G1 X91.514 Y107.184 E36.5426
G1 X91.006 Y106.355 E36.57007
G1 X90.507 Y105.42 E36.60002
G1 X90.134 Y104.584 E36.62588
G1 X89.773 Y103.619 E36.65499
G1 X89.571 Y102.997 E36.67346
G1 X89.371 Y102.195 E36.69682
G1 X89.192 Y101.33 E36.72178
G1 X89.101 Y100.575 E36.74326
G1 X89.038 Y99.757 E36.76644
G1 X89.029 Y99.177 E36.78283
G1 X89.102 Y97.958 E36.81735
G1 X89.172 Y97.498 E36.83049
G0 F7800 X89.662 Y97.595
G1 F1206 X89.939 Y96.357 E36.86636
G1 X90.22 Y95.559 E36.89027
G1 X90.562 Y94.761 E36.91481
G1 X90.967 Y93.977 E36.93975
G1 X91.498 Y93.141 E36.96775
G1 X91.84 Y92.67 E36.98419
G1 X92.463 Y91.919 E37.01178
G1 X93.166 Y91.23 E37.03961
G1 X94.013 Y90.538 E37.07054
G1 X94.353 Y90.303 E37.08222
G1 X95.035 Y89.883 E37.10487
G1 X96.208 Y89.338 E37.14145
G1 X97.316 Y88.975 E37.17443
G1 X97.78 Y88.869 E37.18789
G1 X98.295 Y88.773 E37.20271
G1 X98.921 Y88.691 E37.22057
G1 X99.999 Y88.648 E37.25109
G1 X101.061 Y88.69 E37.28116
G1 X101.468 Y88.735 E37.29275
G1 X102.449 Y88.919 E37.32099
G1 X103.338 Y89.18 E37.34721
G1 X103.783 Y89.335 E37.36054
G1 X104.832 Y89.814 E37.39317
G1 X105.702 Y90.343 E37.42198
G1 X106.574 Y91.009 E37.45302
G1 X107.662 Y92.063 E37.49588
G1 X108.246 Y92.789 E37.52225
G1 X108.944 Y93.838 E37.5579
G1 X109.254 Y94.411 E37.57633
G1 X109.539 Y94.99 E37.59459
G1 X109.686 Y95.338 E37.60528
G1 X110.03 Y96.269 E37.63336
G1 X110.223 Y97.07 E37.65667
G1 X110.384 Y97.918 E37.68109
G1 X110.446 Y98.768 E37.70521
G1 X110.467 Y99.595 E37.72862
G1 X110.411 Y100.388 E37.75111
G1 X110.311 Y101.24 E37.77538
G1 X110.09 Y102.285 E37.80559
G1 X109.98 Y102.735 E37.81869
G1 X109.631 Y103.803 E37.85047
G1 X109.162 Y104.931 E37.88503
G1 X108.911 Y105.457 E37.90151
G1 X108.283 Y106.571 E37.93768
G1 X107.716 Y107.406 E37.96622
G1 X107.202 Y108.077 E37.99012
G1 X106.571 Y108.773 E38.01668
G1 X106.066 Y109.277 E38.03684
G1 X105.419 Y109.823 E38.06078
G1 X104.855 Y110.252 E38.0808
G1 X104.064 Y110.758 E38.10735
G1 X103.409 Y111.11 E38.12836
G1 X102.653 Y111.437 E38.15164
G1 X101.827 Y111.715 E38.17627
G1 X101.304 Y111.843 E38.19148
G1 X100.622 Y111.954 E38.211
G1 X100.053 Y111.982 E38.2271
G1 X99.373 Y111.954 E38.24632
G1 X98.743 Y111.855 E38.26433
G1 X98.076 Y111.689 E38.28375
G1 X97.202 Y111.383 E38.30991
G1 X96.502 Y111.069 E38.33158
G1 X95.801 Y110.68 E38.35423
G1 X95.015 Y110.166 E38.38076
G1 X94.25 Y109.556 E38.4084
G1 X93.672 Y109.032 E38.43044
G1 X92.855 Y108.149 E38.46444
G1 X92.413 Y107.589 E38.48458
G1 X91.942 Y106.924 E38.5076
G1 X91.434 Y106.095 E38.53507
G1 X90.955 Y105.198 E38.5638
G1 X90.597 Y104.396 E38.58862
G1 X90.249 Y103.467 E38.61665
G1 X90.05 Y102.853 E38.63488
G1 X89.855 Y102.071 E38.65765
G1 X89.686 Y101.252 E38.68127
G1 X89.599 Y100.526 E38.70193
G1 X89.538 Y99.742 E38.72415
G1 X89.53 Y99.186 E38.73985
G1 X89.6 Y98.008 E38.77322
G1 X89.662 Y97.595 E38.785
G0 F7800 X88.677 Y97.418
; TYPE:WALL-OUTER
G1 F844.2 X88.975 Y96.087 E38.82357
G1 X89.289 Y95.193 E38.85035
G1 X89.655 Y94.338 E38.87664
G1 X90.1 Y93.477 E38.90404
G1 X90.676 Y92.57 E38.93441
G1 X91.045 Y92.063 E38.95213
G1 X91.539 Y91.451 E38.97437
G1 X91.745 Y91.223 E38.98304
G1 X92.497 Y90.486 E39.01281
G1 X93.413 Y89.737 E39.04627
G1 X93.798 Y89.471 E39.0595
G1 X94.568 Y88.997 E39.08506
G1 X95.834 Y88.408 E39.12456
G1 X97.052 Y88.009 E39.16082
G1 X97.572 Y87.891 E39.1759
G1 X98.137 Y87.786 E39.19215
G1 X98.837 Y87.694 E39.21212
G1 X99.998 Y87.647 E39.245
G1 X101.139 Y87.693 E39.27731
G1 X101.619 Y87.745 E39.29097
G1 X102.685 Y87.945 E39.32166
G1 X103.632 Y88.223 E39.34958
G1 X104.157 Y88.407 E39.36532
G1 X105.294 Y88.926 E39.40069
G1 X106.267 Y89.517 E39.4329
G1 X107.229 Y90.252 E39.46715
G1 X108.409 Y91.397 E39.51367
G1 X109.05 Y92.194 E39.54261
G1 X109.805 Y93.326 E39.58111
G1 X110.149 Y93.964 E39.60162
G1 X110.446 Y94.566 E39.62061
G1 X110.61 Y94.954 E39.63253
G1 X110.988 Y95.975 E39.66334
G1 X111.2 Y96.856 E39.68898
G1 X111.379 Y97.798 E39.71611
G1 X111.445 Y98.715 E39.74212
G1 X111.468 Y99.619 E39.76771
G1 X111.407 Y100.483 E39.79221
G1 X111.302 Y101.387 E39.81796
G1 X111.066 Y102.501 E39.85017
G1 X110.944 Y103.003 E39.86478
G1 X110.572 Y104.14 E39.89862
G1 X110.412 Y104.554 E39.91117
G1 X110.07 Y105.349 E39.93564
G1 X109.796 Y105.924 E39.95365
G1 X109.134 Y107.098 E39.99177
G1 X108.526 Y107.994 E40.0224
G1 X107.968 Y108.721 E40.04831
G1 X107.293 Y109.467 E40.07676
G1 X106.743 Y110.014 E40.09868
G1 X106.054 Y110.596 E40.12418
G1 X105.424 Y111.076 E40.14657
G1 X104.566 Y111.623 E40.17533
G1 X103.847 Y112.01 E40.19841
G1 X103.02 Y112.368 E40.22388
G1 X102.104 Y112.677 E40.25121
G1 X101.501 Y112.824 E40.26874
G1 X100.732 Y112.949 E40.29076
G1 X100.051 Y112.983 E40.31002
G1 X99.274 Y112.951 E40.332
G1 X98.546 Y112.837 E40.35281
G1 X97.786 Y112.647 E40.37495
G1 X96.827 Y112.311 E40.40366
G1 X96.058 Y111.966 E40.42747
G1 X95.286 Y111.538 E40.45241
G1 X94.429 Y110.977 E40.48135
G1 X93.604 Y110.319 E40.51117
G1 X92.966 Y109.741 E40.53549
G1 X92.094 Y108.8 E40.57175
G1 X91.62 Y108.197 E40.59341
G1 X91.097 Y107.46 E40.61894
G1 X90.571 Y106.601 E40.6474
G1 X90.054 Y105.632 E40.67844
G1 X89.67 Y104.772 E40.70505
G1 X89.304 Y103.794 E40.73456
G1 X89.089 Y103.132 E40.75421
G1 X88.881 Y102.297 E40.77853
G1 X88.697 Y101.407 E40.80421
G1 X88.603 Y100.623 E40.82652
G1 X88.538 Y99.787 E40.85021
G1 X88.529 Y99.172 E40.86759
G1 X88.605 Y97.893 E40.90381
G1 X88.677 Y97.418 E40.91738
G0 F7800 X89.995 Y98.094
; TYPE:FILL
G1 F2412 X99.002 Y89.087 E41.27776
G0 F7800 X99.738 Y89.059
G1 F2412 X89.951 Y98.846 E41.66936
G0 F7800 X89.935 Y99.569
G1 F2412 X100.438 Y89.066 E42.08961
G0 F7800 X101.113 Y89.098
G1 F2412 X89.976 Y100.235 E42.53523
G0 F7800 X90.042 Y100.875
G1 F2412 X101.728 Y89.19 E43.00279
G0 F7800 X102.323 Y89.302
G1 F2412 X90.142 Y101.483 E43.49018
G0 F7800 X90.266 Y102.066
G1 F2412 X102.872 Y89.461 E43.99456
G0 F7800 X103.411 Y89.628
G1 F2412 X90.407 Y102.633 E44.5149
G0 F7800 X90.574 Y103.172
G1 F2412 X103.912 Y89.834 E45.04859
G0 F7800 X104.398 Y90.055
G1 F2412 X90.761 Y103.692 E45.59424
G0 F7800 X90.953 Y104.208
G1 F2412 X104.861 Y90.299 E46.15076
G0 F7800 X105.301 Y90.566
G1 F2412 X91.17 Y104.698 E46.71619
G0 F7800 X91.397 Y105.177
G1 F2412 X105.718 Y90.857 E47.2892
G0 F7800 X106.118 Y91.164
G1 F2412 X91.643 Y105.638 E47.86836
G0 F7800 X91.899 Y106.09
G1 F2412 X106.497 Y91.492 E48.45246
G0 F7800 X106.856 Y91.84
G1 F2412 X92.167 Y106.529 E49.04021
G0 F7800 X92.452 Y106.952
G1 F2412 X107.215 Y92.188 E49.63094
G0 F7800 X107.548 Y92.562
G1 F2412 X92.746 Y107.364 E50.22321
G0 F7800 X93.058 Y107.76
G1 F2412 X107.864 Y92.954 E50.81563
G0 F7800 X108.153 Y93.372
G1 F2412 X93.389 Y108.135 E51.40636
G0 F7800 X93.729 Y108.503
G1 F2412 X108.435 Y93.797 E51.99479
G0 F7800 X108.703 Y94.236
G1 F2412 X94.079 Y108.86 E52.57993
G0 F7800 X94.449 Y109.197
G1 F2412 X108.948 Y94.697 E53.1601
G0 F7800 X109.18 Y95.173
G1 F2412 X94.839 Y109.513 E53.7339
G0 F7800 X95.233 Y109.827
G1 F2412 X109.383 Y95.677 E54.30008
G0 F7800 X109.574 Y96.193
G1 F2412 X95.658 Y110.109 E54.85689
G0 F7800 X96.091 Y110.383
G1 F2412 X109.732 Y96.742 E55.40271
G0 F7800 X109.863 Y97.319
G1 F2412 X96.546 Y110.635 E55.93553
G0 F7800 X97.024 Y110.864
G1 F2412 X109.975 Y97.913 E56.45374
G0 F7800 X110.029 Y98.567
G1 F2412 X97.524 Y111.071 E56.95407
G0 F7800 X98.048 Y111.254
G1 F2412 X110.056 Y99.246 E57.43454
G0 F7800 X110.039 Y99.971
G1 F2412 X98.603 Y111.407 E57.89212
G0 F7800 X99.197 Y111.52
G1 F2412 X109.965 Y100.752 E58.32297
G0 F7800 X109.82 Y101.604
G1 F2412 X99.853 Y111.571 E58.72177
G0 F7800 X100.576 Y111.555
G1 F2412 X109.619 Y102.512 E59.0836
G0 F7800 X109.293 Y103.545
G1 F2412 X101.442 Y111.396 E59.39773
G0 F7800 X102.47 Y111.075
G1 F2412 X108.807 Y104.738 E59.65128
G0 F7800 X108.004 Y106.249
G0 X108.004 Y106.249
G1 F2412 X103.815 Y110.438 E59.81888
G0 F7800 X90.153 Y97.229
G0 X90.153 Y97.229
G1 F2412 X98.181 Y89.201 E60.14009
G0 F7800 X97.261 Y89.415
G1 F2412 X90.388 Y96.288 E60.41509
G0 F7800 X90.838 Y95.13
G1 F2412 X96.175 Y89.794 E60.6286
G0 F7800 X94.709 Y90.552
G0 X94.709 Y90.552
G1 F2412 X91.708 Y93.553 E60.74866
G0 F7800 X89.063 Y96.343
G0 X89.063 Y96.343
G0 X88.723 Y96.265
G0 X88.723 Y96.265 Z1.3
; LAYER:2
G0 X88.723 Y96.265
G0 X89.213 Y96.367
; TYPE:WALL-INNER
G1 F1242 X89.354 Y95.865 E60.76339
G1 X89.887 Y94.519 E60.80433
G1 X90.459 Y93.432 E60.83905
G1 X91.131 Y92.396 E60.87397
G1 X91.912 Y91.439 E60.9089
G1 X92.8 Y90.56 E60.94423
G1 X93.723 Y89.821 E60.97767
G1 X94.85 Y89.128 E61.01509
G1 X96.016 Y88.589 E61.05142
G1 X97.232 Y88.193 E61.0876
G1 X98.603 Y87.933 E61.12707
G1 X99.998 Y87.879 E61.16657
G1 X101.395 Y87.933 E61.20613
G1 X102.698 Y88.177 E61.24364
G1 X103.983 Y88.591 E61.28184
G1 X105.15 Y89.13 E61.31821
G1 X106.215 Y89.777 E61.35347
G1 X107.093 Y90.47 E61.38511
G1 X108.079 Y91.435 E61.42415
G1 X108.822 Y92.338 E61.45724
G1 X109.54 Y93.439 E61.49443
G1 X110.107 Y94.513 E61.52879
G1 X110.434 Y95.313 E61.55324
G1 X110.638 Y95.86 E61.56976
G1 X110.867 Y96.725 E61.59508
G1 X111.131 Y97.956 E61.6307
G1 X111.215 Y99.517 E61.67493
G1 X111.169 Y100.271 E61.6963
G1 X111.069 Y101.251 E61.72417
G1 X110.901 Y102.077 E61.74802
G1 X110.68 Y103.009 E61.77511
G1 X110.337 Y104.061 E61.80641
G1 X110.012 Y104.862 E61.83086
G1 X109.664 Y105.631 E61.85473
G1 X108.872 Y107.026 E61.9001
G1 X108.506 Y107.556 E61.91831
G1 X107.857 Y108.428 E61.94905
G1 X107.146 Y109.209 E61.97892
G1 X106.724 Y109.636 E61.99588
G1 X105.614 Y110.575 E62.037
G1 X104.413 Y111.355 E62.07749
G1 X103.885 Y111.644 E62.0945
G1 X102.887 Y112.071 E62.12519
G1 X102.102 Y112.341 E62.14865
G1 X101.392 Y112.521 E62.16934
G1 X100.67 Y112.629 E62.18997
G1 X99.998 Y112.645 E62.20896
G1 X99.317 Y112.629 E62.22821
G1 X98.685 Y112.538 E62.24624
G1 X97.936 Y112.355 E62.26802
G1 X97.212 Y112.111 E62.2896
G1 X96.239 Y111.707 E62.31938
G1 X95.506 Y111.309 E62.34294
G1 X94.466 Y110.639 E62.3779
G1 X93.93 Y110.206 E62.39736
G1 X93.16 Y109.534 E62.42624
G1 X92.306 Y108.615 E62.46169
G1 X92.032 Y108.295 E62.47357
G1 X91.209 Y107.163 E62.51313
G1 X90.8 Y106.484 E62.53552
G1 X90.339 Y105.647 E62.56252
G1 X89.921 Y104.72 E62.59125
G1 X89.621 Y103.955 E62.61447
G1 X89.283 Y102.897 E62.64586
G1 X89.011 Y101.693 E62.68075
G1 X88.911 Y101.15 E62.69634
G1 X88.839 Y100.423 E62.71698
G1 X88.78 Y99.563 E62.74134
G1 X88.856 Y98.029 E62.78477
G1 X89.024 Y97.182 E62.80917
G1 X89.213 Y96.367 E62.83281
G0 F7800 X89.693 Y96.509
G1 F1242 X89.83 Y96.019 E62.84718
G1 X90.341 Y94.729 E62.88641
G1 X90.888 Y93.689 E62.91964
G1 X91.538 Y92.688 E62.95338
G1 X92.281 Y91.778 E62.9866
G1 X93.136 Y90.931 E63.02063
G1 X94.007 Y90.234 E63.05218
G1 X95.086 Y89.57 E63.08801
G1 X96.196 Y89.057 E63.1226
G1 X97.363 Y88.676 E63.15732
G1 X98.655 Y88.431 E63.19453
G1 X99.998 Y88.38 E63.23255
G1 X101.338 Y88.431 E63.27049
G1 X102.579 Y88.664 E63.30622
G1 X103.799 Y89.057 E63.34249
G1 X104.917 Y89.573 E63.37733
G1 X105.935 Y90.192 E63.41104
G1 X106.752 Y90.837 E63.44049
G1 X107.717 Y91.781 E63.47868
G1 X108.416 Y92.63 E63.5098
G1 X109.106 Y93.689 E63.54556
G1 X109.655 Y94.729 E63.57884
G1 X110.161 Y96.011 E63.61783
G1 X110.376 Y96.822 E63.64157
G1 X110.634 Y98.026 E63.67641
G1 X110.715 Y99.513 E63.71855
G1 X110.672 Y100.214 E63.73842
G1 X110.573 Y101.18 E63.76589
G1 X110.408 Y101.992 E63.78933
G1 X110.198 Y102.874 E63.81498
G1 X109.87 Y103.881 E63.84493
G1 X109.553 Y104.663 E63.8688
G1 X109.217 Y105.405 E63.89183
G1 X108.448 Y106.761 E63.93593
G1 X108.094 Y107.272 E63.9535
G1 X107.468 Y108.113 E63.98314
G1 X106.786 Y108.862 E64.01179
G1 X106.387 Y109.267 E64.02785
G1 X105.316 Y110.172 E64.06751
G1 X104.151 Y110.928 E64.10678
G1 X103.662 Y111.196 E64.12253
G1 X102.718 Y111.6 E64.15156
G1 X101.949 Y111.864 E64.17453
G1 X101.294 Y112.031 E64.19363
G1 X100.632 Y112.13 E64.21254
G1 X99.998 Y112.144 E64.23046
G1 X99.358 Y112.13 E64.24854
G1 X98.783 Y112.047 E64.26495
G1 X98.06 Y111.871 E64.28597
G1 X97.393 Y111.646 E64.30585
G1 X96.463 Y111.259 E64.33431
G1 X95.766 Y110.881 E64.35671
G1 X94.754 Y110.228 E64.39075
G1 X94.264 Y109.833 E64.40851
G1 X93.508 Y109.174 E64.43685
G1 X92.689 Y108.293 E64.47085
G1 X92.417 Y107.975 E64.48265
G1 X91.63 Y106.892 E64.52049
G1 X91.229 Y106.227 E64.54242
G1 X90.789 Y105.428 E64.56819
G1 X90.382 Y104.524 E64.5962
G1 X90.096 Y103.797 E64.61827
G1 X89.762 Y102.75 E64.64933
G1 X89.504 Y101.609 E64.68239
G1 X89.408 Y101.084 E64.69746
G1 X89.337 Y100.373 E64.71765
G1 X89.28 Y99.546 E64.74107
G1 X89.353 Y98.091 E64.78226
G1 X89.511 Y97.295 E64.8052
G1 X89.693 Y96.509 E64.828
G0 F7800 X88.723 Y96.265
; TYPE:WALL-OUTER
G1 F869.4 X88.878 Y95.711 E64.84425
G1 X89.433 Y94.309 E64.88688
G1 X90.019 Y93.192 E64.92255
G1 X90.727 Y92.101 E64.95933
G1 X91.544 Y91.1 E64.99586
G1 X92.473 Y90.18 E65.03284
G1 X93.43 Y89.414 E65.0675
G1 X94.614 Y88.686 E65.10681
G1 X95.828 Y88.124 E65.14465
G1 X97.108 Y87.708 E65.18272
G1 X98.544 Y87.435 E65.22408
G1 X99.998 Y87.379 E65.26525
G1 X101.453 Y87.435 E65.30645
G1 X102.824 Y87.692 E65.34591
G1 X104.167 Y88.125 E65.38584
G1 X105.379 Y88.685 E65.42361
G1 X106.508 Y89.371 E65.46099
G1 X107.414 Y90.086 E65.49365
G1 X108.453 Y91.102 E65.53477
G1 X109.226 Y92.041 E65.56918
G1 X109.969 Y93.181 E65.60768
G1 X110.56 Y94.3 E65.64349
G1 X110.903 Y95.138 E65.6691
G1 X111.112 Y95.697 E65.68599
G1 X111.35 Y96.597 E65.71233
G1 X111.628 Y97.887 E65.74967
G1 X111.716 Y99.521 E65.79597
G1 X111.669 Y100.293 E65.81785
G1 X111.563 Y101.331 E65.84737
G1 X111.388 Y102.192 E65.87222
G1 X111.165 Y103.133 E65.89958
G1 X110.806 Y104.233 E65.93231
G1 X110.477 Y105.046 E65.95711
G1 X110.106 Y105.865 E65.98254
G1 X109.298 Y107.29 E66.02888
G1 X108.907 Y107.855 E66.0483
G1 X108.242 Y108.748 E66.07979
G1 X107.515 Y109.547 E66.11033
G1 X107.062 Y110.006 E66.12856
G1 X105.917 Y110.974 E66.17096
G1 X104.66 Y111.79 E66.21334
G1 X104.103 Y112.095 E66.23128
G1 X103.069 Y112.537 E66.26308
G1 X102.245 Y112.821 E66.28771
G1 X101.489 Y113.013 E66.30975
G1 X100.716 Y113.128 E66.33184
G1 X99.998 Y113.145 E66.35213
G1 X99.276 Y113.128 E66.37253
G1 X98.589 Y113.029 E66.39214
G1 X97.795 Y112.836 E66.41523
G1 X97.035 Y112.58 E66.43788
G1 X96.028 Y112.161 E66.4687
G1 X95.248 Y111.738 E66.49377
G1 X94.172 Y111.044 E66.52996
G1 X93.616 Y110.595 E66.55014
G1 X92.812 Y109.894 E66.58028
G1 X91.947 Y108.963 E66.6162
G1 X91.628 Y108.591 E66.63002
G1 X90.797 Y107.446 E66.67002
G1 X90.363 Y106.727 E66.69374
G1 X89.89 Y105.868 E66.72145
G1 X89.46 Y104.914 E66.75102
G1 X89.149 Y104.12 E66.77511
G1 X88.798 Y103.022 E66.80769
G1 X88.52 Y101.791 E66.84336
G1 X88.417 Y101.229 E66.85949
G1 X88.342 Y100.472 E66.88099
G1 X88.279 Y99.573 E66.90646
G1 X88.359 Y97.961 E66.95209
G1 X88.537 Y97.069 E66.9778
G1 X88.723 Y96.265 E67.00112
G0 F7800 X90.116 Y96.48
; TYPE:FILL
G1 F2484 X104.112 Y110.476 E67.56116
G0 F7800 X104.54 Y110.197
G1 F2484 X90.289 Y95.945 E68.13138
G0 F7800 X90.489 Y95.439
G1 F2484 X104.969 Y109.919 E68.71078
G0 F7800 X105.363 Y109.606
G1 F2484 X90.689 Y94.932 E69.29791
G0 F7800 X90.931 Y94.466
G1 F2484 X105.747 Y109.282 E69.89076
G0 F7800 X106.128 Y108.957
G1 F2484 X91.175 Y94.003 E70.48907
G0 F7800 X91.444 Y93.565
G1 F2484 X106.48 Y108.601 E71.09072
G0 F7800 X106.817 Y108.231
G1 F2484 X91.722 Y93.136 E71.69469
G0 F7800 X92.02 Y92.727
G1 F2484 X107.154 Y107.861 E72.30027
G0 F7800 X107.456 Y107.456
G1 F2484 X92.338 Y92.338 E72.90516
G0 F7800 X92.666 Y91.959
G1 F2484 X107.758 Y107.051 E73.50905
G0 F7800 X108.048 Y106.633
G1 F2484 X93.021 Y91.607 E74.11028
G0 F7800 X93.376 Y91.254
G1 F2484 X108.311 Y106.189 E74.70789
G0 F7800 X108.567 Y105.738
G1 F2484 X93.765 Y90.937 E75.30012
G0 F7800 X94.159 Y90.623
G1 F2484 X108.823 Y105.287 E75.88689
G0 F7800 X109.048 Y104.805
G1 F2484 X94.588 Y90.345 E76.46545
G0 F7800 X95.025 Y90.076
G1 F2484 X109.262 Y104.313 E77.03513
G0 F7800 X109.467 Y103.81
G1 F2484 X95.484 Y89.827 E77.59461
G0 F7800 X95.967 Y89.603
G1 F2484 X109.644 Y103.28 E78.14188
G0 F7800 X109.817 Y102.746
G1 F2484 X96.461 Y89.39 E78.67627
G0 F7800 X96.994 Y89.216
G1 F2484 X109.952 Y102.174 E79.19477
G0 F7800 X110.08 Y101.594
G1 F2484 X97.534 Y89.049 E79.69672
G0 F7800 X98.129 Y88.937
G1 F2484 X110.189 Y100.996 E80.17927
G0 F7800 X110.254 Y100.355
G1 F2484 X98.727 Y88.828 E80.64048
G0 F7800 X99.409 Y88.802
G1 F2484 X110.302 Y99.695 E81.07635
G0 F7800 X110.283 Y98.97
G1 F2484 X100.098 Y88.784 E81.48387
G0 F7800 X100.833 Y88.812
G1 F2484 X110.243 Y98.222 E81.8604
G0 F7800 X110.078 Y97.35
G1 F2484 X101.618 Y88.89 E82.19888
G0 F7800 X102.493 Y89.057
G1 F2484 X109.853 Y96.418 E82.49341
G0 F7800 X109.453 Y95.31
G1 F2484 X103.535 Y89.393 E82.73015
G0 F7800 X104.849 Y90
G1 F2484 X108.781 Y93.932 E82.88749
G0 F7800 X103.666 Y110.737
G0 X103.666 Y110.737
G1 F2484 X89.977 Y97.048 E83.4352
G0 F7800 X89.851 Y97.629
G1 F2484 X103.185 Y110.963 E83.96875
G0 F7800 X102.69 Y111.175
G1 F2484 X89.745 Y98.231 E84.48667
G0 F7800 X89.712 Y98.905
G1 F2484 X102.171 Y111.364 E84.9852
G0 F7800 X101.631 Y111.531
G1 F2484 X89.684 Y99.583 E85.46323
G0 F7800 X89.736 Y100.342
G1 F2484 X101.054 Y111.661 E85.91613
G0 F7800 X100.42 Y111.734
G1 F2484 X89.824 Y101.138 E86.34008
G0 F7800 X90.009 Y102.03
G1 F2484 X99.716 Y111.737 E86.72849
G0 F7800 X98.936 Y111.664
G1 F2484 X90.256 Y102.984 E87.07578
G0 F7800 X90.631 Y104.067
G1 F2484 X97.989 Y111.424 E87.37018
G0 F7800 X96.838 Y110.981
G1 F2484 X91.195 Y105.337 E87.59596
G0 F7800 X92.34 Y107.189
G0 X92.34 Y107.189
G1 F2484 X95.172 Y110.021 E87.70928
G0 F7800 X88.62 Y97.341
G0 X88.62 Y97.341
G0 X88.277 Y97.275
G0 X88.277 Y97.275 Z1.7
; LAYER:3
G0 X88.277 Y97.275
G0 X88.766 Y97.381
; TYPE:WALL-INNER
G1 F882 X88.977 Y96.534 E87.73395
G1 X89.367 Y95.256 E87.77173
G1 X89.795 Y94.249 E87.80266
G1 X90.383 Y93.15 E87.8379
G1 X91.073 Y92.117 E87.87303
G1 X91.876 Y91.151 E87.90855
G1 X92.767 Y90.276 E87.94386
G1 X93.757 Y89.514 E87.97919
G1 X94.84 Y88.851 E88.01511
G1 X95.997 Y88.319 E88.05113
G1 X97.245 Y87.929 E88.08811
G1 X98.603 Y87.68 E88.12717
G1 X99.998 Y87.612 E88.16669
G1 X101.392 Y87.68 E88.20618
G1 X102.75 Y87.929 E88.24524
G1 X103.998 Y88.319 E88.28224
G1 X105.155 Y88.851 E88.31827
G1 X106.238 Y89.514 E88.3542
G1 X107.228 Y90.276 E88.38954
G1 X108.119 Y91.151 E88.42488
G1 X108.922 Y92.117 E88.46042
G1 X109.612 Y93.15 E88.49557
G1 X110.2 Y94.248 E88.53081
G1 X110.671 Y95.372 E88.56529
G1 X110.956 Y96.296 E88.59265
G1 X111.159 Y97.082 E88.61562
G1 X111.281 Y97.639 E88.63175
G1 X111.406 Y98.79 E88.66451
G1 X111.439 Y99.253 E88.67765
G1 X111.419 Y100.17 E88.7036
G1 X111.365 Y100.782 E88.72098
G1 X111.192 Y101.921 E88.75357
G1 X111.048 Y102.548 E88.77177
G1 X110.835 Y103.332 E88.79475
G1 X110.612 Y104.003 E88.81474
G1 X110.25 Y104.915 E88.8425
G1 X109.911 Y105.644 E88.86523
G1 X109.565 Y106.293 E88.88603
G1 X108.893 Y107.408 E88.92285
G1 X108.356 Y108.153 E88.94882
G1 X108.067 Y108.511 E88.96182
G1 X107.371 Y109.286 E88.99127
G1 X106.472 Y110.128 E89.0261
G1 X106.02 Y110.506 E89.04275
G1 X105.477 Y110.896 E89.06164
G1 X104.543 Y111.498 E89.09306
G1 X103.642 Y111.943 E89.12147
G1 X102.815 Y112.288 E89.1468
G1 X102.047 Y112.534 E89.16959
G1 X101.332 Y112.692 E89.19028
G1 X100.65 Y112.787 E89.20973
G1 X99.998 Y112.806 E89.22816
G1 X99.344 Y112.787 E89.24664
G1 X98.663 Y112.692 E89.26606
G1 X97.95 Y112.534 E89.28669
G1 X97.316 Y112.336 E89.30545
G1 X96.349 Y111.942 E89.33496
G1 X95.504 Y111.528 E89.36155
G1 X94.512 Y110.892 E89.39485
G1 X93.971 Y110.503 E89.41366
G1 X93.773 Y110.341 E89.42086
G1 X92.716 Y109.383 E89.46118
G1 X91.936 Y108.521 E89.49404
G1 X91.42 Y107.857 E89.51779
G1 X91.084 Y107.367 E89.53456
G1 X90.586 Y106.558 E89.5614
G1 X90.158 Y105.793 E89.58616
G1 X89.694 Y104.799 E89.61716
G1 X89.395 Y104.032 E89.64042
G1 X89.069 Y103.029 E89.67023
G1 X88.957 Y102.588 E89.68306
G1 X88.77 Y101.722 E89.7081
G1 X88.632 Y100.807 E89.73425
G1 X88.561 Y99.831 E89.76191
G1 X88.556 Y99.386 E89.77447
G1 X88.59 Y98.775 E89.79176
G1 X88.708 Y97.686 E89.82272
G1 X88.766 Y97.381 E89.83148
G0 F7800 X89.253 Y97.493
G1 F882 X89.458 Y96.671 E89.85542
G1 X89.836 Y95.43 E89.8921
G1 X90.248 Y94.462 E89.92184
G1 X90.809 Y93.413 E89.95547
G1 X91.473 Y92.419 E89.98927
G1 X92.249 Y91.485 E90.02361
G1 X93.092 Y90.658 E90.057
G1 X94.043 Y89.926 E90.09094
G1 X95.074 Y89.294 E90.12514
G1 X96.184 Y88.784 E90.15969
G1 X97.362 Y88.416 E90.1946
G1 X98.665 Y88.178 E90.23207
G1 X99.998 Y88.112 E90.26984
G1 X101.33 Y88.178 E90.30757
G1 X102.633 Y88.416 E90.34505
G1 X103.811 Y88.784 E90.37997
G1 X104.921 Y89.294 E90.41453
G1 X105.952 Y89.926 E90.44874
G1 X106.903 Y90.658 E90.4827
G1 X107.746 Y91.485 E90.51611
G1 X108.522 Y92.419 E90.55047
G1 X109.186 Y93.413 E90.58429
G1 X109.749 Y94.466 E90.61808
G1 X110.199 Y95.537 E90.65095
G1 X110.473 Y96.428 E90.67732
G1 X110.675 Y97.206 E90.70007
G1 X110.787 Y97.717 E90.71487
G1 X110.907 Y98.82 E90.74626
G1 X110.939 Y99.267 E90.75894
G1 X110.92 Y100.143 E90.78373
G1 X110.869 Y100.715 E90.79998
G1 X110.699 Y101.836 E90.83205
G1 X110.558 Y102.445 E90.84973
G1 X110.356 Y103.19 E90.87157
G1 X110.146 Y103.82 E90.89035
G1 X109.794 Y104.709 E90.91739
G1 X109.455 Y105.436 E90.94008
G1 X109.135 Y106.038 E90.95935
G1 X108.474 Y107.134 E90.99555
G1 X107.963 Y107.843 E91.02026
G1 X107.679 Y108.195 E91.03304
G1 X107.016 Y108.934 E91.06111
G1 X106.134 Y109.759 E91.09526
G1 X105.711 Y110.113 E91.11085
G1 X105.215 Y110.47 E91.12812
G1 X104.287 Y111.067 E91.15931
G1 X103.446 Y111.483 E91.18584
G1 X102.635 Y111.821 E91.21067
G1 X101.918 Y112.05 E91.23194
G1 X101.243 Y112.2 E91.25148
G1 X100.603 Y112.289 E91.26973
G1 X99.998 Y112.307 E91.28683
G1 X99.391 Y112.289 E91.30398
G1 X98.752 Y112.2 E91.3222
G1 X98.078 Y112.051 E91.3417
G1 X97.489 Y111.866 E91.35913
G1 X96.552 Y111.484 E91.38773
G1 X95.75 Y111.093 E91.41293
G1 X94.783 Y110.472 E91.44541
G1 X94.285 Y110.114 E91.46273
G1 X93.076 Y109.035 E91.50854
G1 X92.318 Y108.197 E91.54047
G1 X91.819 Y107.555 E91.56343
G1 X91.506 Y107.099 E91.57904
G1 X91.012 Y106.296 E91.60568
G1 X90.606 Y105.571 E91.62915
G1 X90.155 Y104.604 E91.6593
G1 X89.865 Y103.86 E91.68186
G1 X89.547 Y102.88 E91.71098
G1 X89.449 Y102.497 E91.72213
G1 X89.264 Y101.638 E91.74696
G1 X89.131 Y100.766 E91.77188
G1 X89.061 Y99.806 E91.79909
G1 X89.056 Y99.392 E91.81077
G1 X89.088 Y98.821 E91.82693
G1 X89.204 Y97.753 E91.85729
G1 X89.253 Y97.493 E91.86475
G0 F7800 X88.277 Y97.275
; TYPE:WALL-OUTER
G1 F617.4 X88.492 Y96.413 E91.88986
G1 X88.894 Y95.091 E91.92893
G1 X89.346 Y94.027 E91.96161
G1 X89.95 Y92.898 E91.99782
G1 X90.675 Y91.814 E92.03469
G1 X91.507 Y90.812 E92.07152
G1 X92.438 Y89.899 E92.1084
G1 X93.471 Y89.103 E92.14528
G1 X94.606 Y88.408 E92.18292
G1 X95.817 Y87.851 E92.22062
G1 X97.129 Y87.442 E92.2595
G1 X98.541 Y87.183 E92.30011
G1 X99.998 Y87.112 E92.34138
G1 X101.454 Y87.183 E92.38263
G1 X102.866 Y87.442 E92.42325
G1 X104.178 Y87.851 E92.46213
G1 X105.389 Y88.408 E92.49984
G1 X106.524 Y89.103 E92.5375
G1 X107.557 Y89.899 E92.5744
G1 X108.488 Y90.812 E92.61129
G1 X109.32 Y91.814 E92.64814
G1 X110.045 Y92.898 E92.68504
G1 X110.65 Y94.029 E92.72133
G1 X110.925 Y94.658 E92.74076
G1 X111.142 Y95.201 E92.7573
G1 X111.431 Y96.138 E92.78505
G1 X111.648 Y96.975 E92.80951
G1 X111.775 Y97.552 E92.82623
G1 X111.903 Y98.736 E92.85992
G1 X111.94 Y99.236 E92.87411
G1 X111.919 Y100.196 E92.90128
G1 X111.861 Y100.849 E92.91983
G1 X111.684 Y102.012 E92.95311
G1 X111.528 Y102.689 E92.97276
G1 X111.316 Y103.471 E92.99567
G1 X111.083 Y104.173 E93.01659
G1 X110.713 Y105.104 E93.04493
G1 X110.362 Y105.86 E93.0685
G1 X110 Y106.541 E93.09031
G1 X109.309 Y107.685 E93.12811
G1 X108.754 Y108.456 E93.15497
G1 X108.447 Y108.836 E93.16878
G1 X107.732 Y109.633 E93.19905
G1 X106.802 Y110.503 E93.23506
G1 X106.323 Y110.904 E93.25272
G1 X105.764 Y111.306 E93.27218
G1 X104.785 Y111.937 E93.30511
G1 X103.859 Y112.394 E93.3343
G1 X102.985 Y112.758 E93.36106
G1 X102.179 Y113.016 E93.38498
G1 X101.42 Y113.184 E93.40695
G1 X100.688 Y113.287 E93.42783
G1 X99.998 Y113.307 E93.44734
G1 X99.306 Y113.287 E93.4669
G1 X98.575 Y113.184 E93.48775
G1 X97.822 Y113.018 E93.50954
G1 X97.145 Y112.806 E93.52957
G1 X96.145 Y112.398 E93.56009
G1 X95.254 Y111.962 E93.58812
G1 X94.231 Y111.306 E93.62247
G1 X93.666 Y110.9 E93.64211
G1 X93.44 Y110.715 E93.65034
G1 X92.367 Y109.742 E93.69128
G1 X91.547 Y108.836 E93.72582
G1 X91.017 Y108.153 E93.75024
G1 X90.659 Y107.632 E93.76808
G1 X90.16 Y106.82 E93.79501
G1 X89.715 Y106.026 E93.82073
G1 X89.232 Y104.991 E93.85301
G1 X88.923 Y104.197 E93.87708
G1 X88.585 Y103.155 E93.90804
G1 X88.472 Y102.711 E93.92096
G1 X88.279 Y101.818 E93.94678
G1 X88.134 Y100.85 E93.97444
G1 X88.061 Y99.857 E94.00258
G1 X88.056 Y99.382 E94.016
G1 X88.091 Y98.736 E94.03427
G1 X88.213 Y97.615 E94.06615
G1 X88.277 Y97.275 E94.07591
G0 F7800 X89.605 Y97.777
; TYPE:FILL
G1 F1764 X89.99 Y97.039 E94.09788
G1 X90.407 Y96.269 E94.12264
G0 F7800 X90.227 Y96.174
G1 F1764 X106.978 Y91.686 E94.6133
G0 F7800 X106.853 Y91.843
G1 F1764 X107.014 Y91.328 E94.62687
G1 X106.291 Y91.344 E94.64096
G1 X106.261 Y90.667 E94.65532
G1 X105.485 Y90.736 E94.66985
G1 X105.435 Y90.078 E94.68499
G1 X104.601 Y90.206 E94.70025
G1 X104.538 Y89.561 E94.71658
G1 X103.881 Y89.865 E94.73704
G0 F7800 X104.073 Y89.724
G1 F1764 X98.234 Y111.518 E95.37542
G0 F7800 X98.316 Y111.693
G1 F1764 X98.753 Y111.61 E95.38699
G1 X99.367 Y111.703 E95.39901
G1 X100.043 Y111.734 E95.41188
G1 X100.584 Y111.547 E95.42807
G0 F7800 X101.07 Y111.676
G1 F1764 X89.82 Y100.427 E95.87816
G0 F7800 X89.797 Y100.172
G1 F1764 X109.277 Y94.952 E96.44877
G0 F7800 X109.484 Y94.869
G1 F1764 X109.052 Y94.947 E96.46139
G1 X109.131 Y94.161 E96.47407
G1 X108.56 Y94.024 E96.4867
G1 X108.608 Y93.27 E96.49943
G1 X107.993 Y93.177 E96.51246
G1 X108.02 Y92.443 E96.52574
G1 X107.365 Y92.391 E96.53881
G1 X107.539 Y91.864 E96.55449
G0 F7800 X107.332 Y92.053
G1 F1764 X102.15 Y111.393 E97.12099
G0 F7800 X101.914 Y111.631
G1 F1764 X102.482 Y111.063 E97.1437
G0 F7800 X103.033 Y111.22
G1 F1764 X103.837 Y110.416 E97.17585
G0 F7800 X104.52 Y110.44
G1 F1764 X108.281 Y106.679 E97.32632
G0 F7800 X107.929 Y106.323
G1 F1764 X109.185 Y105.068 E97.37654
G0 F7800 X108.727 Y104.818
G1 F1764 X109.707 Y103.838 E97.41574
G0 F7800 X109.3 Y103.997
G1 F1764 X95.319 Y90.016 E97.97513
G0 F7800 X96.1 Y89.869
G1 F1764 X97.032 Y88.937 E98.01241
G0 F7800 X97.198 Y89.477
G1 F1764 X97.963 Y88.712 E98.043
G0 F7800 X98.117 Y89.265
G1 F1764 X98.874 Y88.862 E98.07079
G1 X99.556 Y88.534 E98.09219
G0 F7800 X99.516 Y88.91
G1 F1764 X110.229 Y99.622 E98.52084
G0 F7800 X110.533 Y99.477
G1 F1764 X110.257 Y100.106 E98.54201
G1 X110.171 Y100.899 E98.56548
G1 X109.782 Y101.642 E98.5892
G0 F7800 X110.285 Y101.846
G1 F1764 X109.567 Y102.564 E98.61791
G0 F7800 X109.767 Y102.585
G1 F1764 X92.429 Y107.231 E99.12575
G0 F7800 X92.469 Y106.935
G1 F1764 X92.272 Y107.484 E99.13974
G1 X92.918 Y107.546 E99.15311
G1 X92.912 Y108.258 E99.16632
G1 X93.568 Y108.31 E99.17902
G1 X93.61 Y108.974 E99.19159
G1 X94.28 Y109.012 E99.20352
G1 X94.358 Y109.641 E99.21521
G1 X94.844 Y109.508 E99.22946
G0 F7800 X94.826 Y109.747
G1 F1764 X100.41 Y88.906 E99.83991
G0 F7800 X100.397 Y89.106
G1 F1764 X101.002 Y88.855 E99.8618
G1 X101.88 Y88.684 E99.88266
G1 X101.688 Y89.23 E99.89902
G0 F7800 X102.116 Y89.106
G1 F1764 X93.228 Y91.488 E100.15935
G0 F7800 X92.371 Y92.371
G1 F1764 X107.418 Y107.418 E100.76144
G0 F7800 X107.709 Y107.019
G1 F1764 X95.56 Y110.274 E101.11728
G0 F7800 X95.664 Y110.103
G1 F1764 X95.171 Y110.242 E101.12839
G1 X95.243 Y109.817 E101.14056
G0 F7800 X95.816 Y110.658
G1 F1764 X96.326 Y110.502 E101.15184
G1 X96.516 Y111.018 E101.16289
G1 X97.145 Y111.096 E101.17401
G1 X97.646 Y111.303 E101.18462
G1 X98.049 Y111.254 E101.1961
G0 F7800 X101.01 Y111.828
G0 X101.01 Y111.828
G1 F1764 X101.448 Y111.39 E101.21361
G0 F7800 X104.755 Y110.058
G0 X104.755 Y110.058
G1 F1764 X90.397 Y95.7 E101.78809
G0 F7800 X90.129 Y95.839
G1 F1764 X90.866 Y95.102 E101.81756
G0 F7800 X90.595 Y94.666
G1 F1764 X91.752 Y93.509 E101.86384
G0 F7800 X91.335 Y93.799
G1 F1764 X89.768 Y99.646 E102.03511
G0 F7800 X89.968 Y99.536
G1 F1764 X89.739 Y100.118 E102.05467
G1 X89.8 Y100.764 E102.07361
G1 X89.897 Y101.374 E102.09189
G1 X90.014 Y101.964 E102.10976
G1 X89.937 Y102.748 E102.12719
G1 X90.522 Y102.871 E102.14427
G1 X90.187 Y103.559 E102.16591
G0 F7800 X90.636 Y103.829
G1 F1764 X110.212 Y98.583 E102.73934
G0 F7800 X110.01 Y98.585
G1 F1764 X110.191 Y98.051 E102.75619
G1 X110.098 Y97.437 E102.77173
G1 X110.201 Y96.98 E102.78495
G0 F7800 X109.942 Y96.8
G1 F1764 X106.926 Y108.054 E103.11461
G0 F7800 X109.24 Y103.598
G0 X109.24 Y103.598
G1 F1764 X110.049 Y102.789 E103.14696
G0 F7800 X110.025 Y99.277
G0 X110.025 Y99.277
G1 F1764 X110.502 Y98.801 E103.166
G0 F7800 X109.721 Y96.753
G0 X109.721 Y96.753
G1 F1764 X109.808 Y96.312 E103.17913
G1 X109.633 Y95.78 E103.19184
G1 X109.693 Y95.367 E103.20362
G0 F7800 X103.815 Y89.224
G0 X103.815 Y89.224
G1 F1764 X103.104 Y89.581 E103.22125
G1 X103.022 Y88.956 E103.23944
G1 X102.283 Y89.342 E103.26301
G0 F7800 X100.271 Y88.525
G0 X100.271 Y88.525
G1 F1764 X99.694 Y89.103 E103.28609
G0 F7800 X96.356 Y89.548
G0 X96.356 Y89.548
G1 F1764 X91.854 Y106.351 E103.77828
G0 F7800 X91.918 Y106.07
G1 F1764 X91.696 Y106.646 E103.79253
G1 X92.186 Y106.51 E103.80691
G0 F7800 X91.297 Y105.985
G1 F1764 X91.542 Y105.385 E103.82156
G1 X90.925 Y105.295 E103.83663
G1 X91.089 Y104.424 E103.85211
G1 X90.48 Y104.326 E103.868
G1 X90.788 Y103.665 E103.88861
G0 F7800 X89.459 Y99.337
G0 X89.459 Y99.337
G1 F1764 X89.743 Y98.7 E103.90898
G1 X90.026 Y98.064 E103.92865
G0 F7800 X91.588 Y92.966
G0 X91.588 Y92.966
G1 F1764 X94.345 Y90.209 E104.03895
G0 F7800 X94.563 Y90.698
G1 F1764 X95.915 Y89.346 E104.09303
G0 F7800 X111.351 Y102.802
G0 X111.351 Y102.802
G0 X111.69 Y102.885
G0 X111.69 Y102.885 Z2.1
; LAYER:4
G0 X111.69 Y102.885
G0 X111.207 Y102.754
; TYPE:WALL-INNER
G1 F882 X110.95 Y103.694 E104.1206
G1 X110.366 Y105.198 E104.16624
G1 X109.985 Y105.964 E104.19043
G1 X109.584 Y106.705 E104.21426
G1 X109.115 Y107.432 E104.23872
G1 X108.709 Y108.02 E104.25892
G1 X108.252 Y108.585 E104.27947
G1 X107.674 Y109.255 E104.30448
G1 X106.481 Y110.378 E104.35082
G1 X105.319 Y111.222 E104.39143
G1 X105.047 Y111.398 E104.40058
G1 X104.425 Y111.743 E104.42068
G1 X103.537 Y112.174 E104.44858
G1 X103.146 Y112.337 E104.46054
G1 X102.757 Y112.475 E104.47219
G1 X101.994 Y112.698 E104.49465
G1 X101.276 Y112.855 E104.51542
G1 X100.615 Y112.948 E104.53428
G1 X100.166 Y112.966 E104.54697
G1 X99.367 Y112.946 E104.56955
G1 X98.72 Y112.855 E104.58801
G1 X98.001 Y112.698 E104.6088
G1 X97.248 Y112.478 E104.63096
G1 X96.573 Y112.222 E104.65135
G1 X95.568 Y111.741 E104.68283
G1 X94.948 Y111.398 E104.70284
G1 X94.676 Y111.222 E104.71197
G1 X93.513 Y110.377 E104.75261
G1 X92.617 Y109.552 E104.78703
G1 X92.311 Y109.245 E104.79925
G1 X91.889 Y108.767 E104.81725
G1 X91.29 Y108.024 E104.84422
G1 X90.536 Y106.906 E104.88233
G1 X90.171 Y106.275 E104.90292
G1 X89.679 Y105.312 E104.93348
G1 X89.096 Y103.845 E104.97811
G1 X88.985 Y103.501 E104.9883
G1 X88.686 Y102.359 E105.02166
G1 X88.564 Y101.784 E105.03826
G1 X88.416 Y100.689 E105.06949
G1 X88.378 Y100.085 E105.08659
G1 X88.369 Y99.205 E105.11146
G1 X88.522 Y97.731 E105.15336
G1 X88.572 Y97.384 E105.16325
G1 X88.851 Y96.281 E105.19542
G1 X89.085 Y95.502 E105.2184
G1 X89.218 Y95.12 E105.22982
G1 X89.715 Y93.984 E105.26488
G1 X90.318 Y92.88 E105.30045
G1 X91.027 Y91.85 E105.3358
G1 X91.839 Y90.881 E105.37155
G1 X92.747 Y90.02 E105.40694
G1 X93.742 Y89.247 E105.44257
G1 X94.826 Y88.601 E105.47826
G1 X95.997 Y88.075 E105.51457
G1 X97.251 Y87.678 E105.55178
G1 X98.599 Y87.429 E105.59056
G1 X99.998 Y87.345 E105.63021
G1 X101.396 Y87.429 E105.66984
G1 X102.744 Y87.678 E105.70863
G1 X103.998 Y88.075 E105.74584
G1 X105.169 Y88.601 E105.78216
G1 X106.253 Y89.247 E105.81787
G1 X107.248 Y90.02 E105.85352
G1 X108.156 Y90.881 E105.88892
G1 X108.968 Y91.85 E105.92469
G1 X109.677 Y92.88 E105.96007
G1 X110.28 Y93.984 E105.99567
G1 X110.777 Y95.12 E106.03075
G1 X111.111 Y96.156 E106.06155
G1 X111.262 Y96.811 E106.08057
G1 X111.425 Y97.403 E106.09794
G1 X111.621 Y99.087 E106.14591
G1 X111.63 Y99.476 E106.15692
G1 X111.609 Y100.28 E106.17968
G1 X111.58 Y100.672 E106.19079
G1 X111.405 Y101.927 E106.22664
G1 X111.207 Y102.754 E106.2507
G0 F7800 X110.718 Y102.649
G1 F882 X110.475 Y103.537 E106.27674
G1 X109.906 Y105.001 E106.32117
G1 X109.545 Y105.727 E106.3441
G1 X109.157 Y106.445 E106.36718
G1 X108.714 Y107.131 E106.39027
G1 X108.304 Y107.725 E106.41067
G1 X107.861 Y108.273 E106.43059
G1 X107.199 Y109.025 E106.45892
G1 X106.158 Y109.994 E106.49914
G1 X105.052 Y110.799 E106.53782
G1 X104.775 Y110.977 E106.54711
G1 X104.188 Y111.303 E106.56609
G1 X103.336 Y111.717 E106.59286
G1 X102.978 Y111.866 E106.60381
G1 X102.602 Y112 E106.61508
G1 X101.865 Y112.215 E106.63677
G1 X101.19 Y112.363 E106.6563
G1 X100.577 Y112.448 E106.67378
G1 X100.158 Y112.465 E106.68562
G1 X99.404 Y112.447 E106.70693
G1 X98.805 Y112.363 E106.72401
G1 X98.13 Y112.215 E106.74353
G1 X97.412 Y112.005 E106.76466
G1 X96.762 Y111.759 E106.78429
G1 X95.795 Y111.297 E106.81457
G1 X95.22 Y110.977 E106.83315
G1 X94.943 Y110.799 E106.84243
G1 X93.836 Y109.993 E106.88113
G1 X92.957 Y109.184 E106.9149
G1 X92.679 Y108.906 E106.92598
G1 X92.268 Y108.44 E106.94352
G1 X91.691 Y107.726 E106.96945
G1 X90.966 Y106.649 E107.00615
G1 X90.602 Y106.021 E107.02665
G1 X90.133 Y105.103 E107.05578
G1 X89.564 Y103.668 E107.09942
G1 X89.463 Y103.357 E107.10863
G1 X89.176 Y102.26 E107.14068
G1 X89.058 Y101.705 E107.1567
G1 X88.913 Y100.633 E107.18728
G1 X88.878 Y100.066 E107.20332
G1 X88.87 Y99.225 E107.22709
G1 X89.017 Y97.805 E107.26746
G1 X89.064 Y97.481 E107.27669
G1 X89.333 Y96.416 E107.30774
G1 X89.567 Y95.637 E107.33073
G1 X89.684 Y95.304 E107.34069
G1 X90.166 Y94.201 E107.37472
G1 X90.741 Y93.147 E107.40867
G1 X91.43 Y92.147 E107.44301
G1 X92.198 Y91.231 E107.47681
G1 X93.078 Y90.396 E107.51111
G1 X94.023 Y89.662 E107.54495
G1 X95.061 Y89.044 E107.57911
G1 X96.172 Y88.544 E107.61357
G1 X97.372 Y88.165 E107.64917
G1 X98.664 Y87.926 E107.68634
G1 X99.998 Y87.845 E107.72416
G1 X101.331 Y87.926 E107.76194
G1 X102.623 Y88.165 E107.79912
G1 X103.823 Y88.544 E107.83472
G1 X104.934 Y89.044 E107.8692
G1 X105.972 Y89.662 E107.90338
G1 X106.917 Y90.396 E107.93723
G1 X107.797 Y91.231 E107.97156
G1 X108.565 Y92.147 E108.00538
G1 X109.254 Y93.147 E108.03974
G1 X109.829 Y94.201 E108.07371
G1 X110.311 Y95.304 E108.10777
G1 X110.629 Y96.29 E108.13708
G1 X110.777 Y96.934 E108.15578
G1 X110.951 Y97.606 E108.17542
G1 X111.121 Y99.12 E108.21852
G1 X111.129 Y99.476 E108.2286
G1 X111.109 Y100.269 E108.25104
G1 X111.083 Y100.613 E108.2608
G1 X110.915 Y101.825 E108.29542
G1 X110.718 Y102.649 E108.31938
G0 F7800 X111.69 Y102.885
; TYPE:WALL-OUTER
G1 F617.4 X111.428 Y103.844 E108.3475
G1 X110.82 Y105.409 E108.395
G1 X110.432 Y106.189 E108.41964
G1 X110.017 Y106.956 E108.4443
G1 X109.537 Y107.699 E108.46931
G1 X109.102 Y108.33 E108.49098
G1 X108.631 Y108.912 E108.51215
G1 X108.041 Y109.596 E108.53768
G1 X106.798 Y110.766 E108.58596
G1 X105.611 Y111.629 E108.62746
G1 X105.302 Y111.828 E108.63784
G1 X104.648 Y112.191 E108.65898
G1 X103.745 Y112.63 E108.68736
G1 X103.335 Y112.8 E108.69989
G1 X102.912 Y112.951 E108.71258
G1 X102.11 Y113.185 E108.73619
G1 X101.374 Y113.346 E108.75748
G1 X100.664 Y113.446 E108.77773
G1 X100.158 Y113.466 E108.79203
G1 X99.329 Y113.445 E108.81547
G1 X98.621 Y113.346 E108.83566
G1 X97.885 Y113.185 E108.85695
G1 X97.097 Y112.955 E108.88014
G1 X96.369 Y112.679 E108.90213
G1 X95.336 Y112.185 E108.93449
G1 X94.693 Y111.828 E108.95526
G1 X94.384 Y111.629 E108.96562
G1 X93.197 Y110.765 E109.00712
G1 X92.273 Y109.915 E109.04261
G1 X91.948 Y109.589 E109.05559
G1 X91.5 Y109.082 E109.07469
G1 X90.886 Y108.32 E109.10234
G1 X90.11 Y107.169 E109.14158
G1 X89.731 Y106.512 E109.163
G1 X89.217 Y105.505 E109.19495
G1 X88.62 Y104 E109.24073
G1 X88.502 Y103.634 E109.25157
G1 X88.201 Y102.481 E109.28525
G1 X88.071 Y101.869 E109.30292
G1 X87.918 Y100.732 E109.33535
G1 X87.878 Y100.104 E109.35313
G1 X87.869 Y99.185 E109.3791
G1 X88.026 Y97.668 E109.42223
G1 X88.081 Y97.285 E109.43314
G1 X88.366 Y96.156 E109.46606
G1 X88.608 Y95.351 E109.48982
G1 X88.752 Y94.94 E109.50212
G1 X89.268 Y93.757 E109.53861
G1 X89.889 Y92.622 E109.57519
G1 X90.628 Y91.548 E109.61205
G1 X91.477 Y90.536 E109.64941
G1 X92.422 Y89.639 E109.68625
G1 X93.455 Y88.836 E109.72326
G1 X94.598 Y88.155 E109.76089
G1 X95.821 Y87.606 E109.7988
G1 X97.122 Y87.194 E109.83741
G1 X98.543 Y86.931 E109.87829
G1 X99.998 Y86.844 E109.91953
G1 X101.452 Y86.931 E109.96075
G1 X102.873 Y87.194 E110.00163
G1 X104.174 Y87.606 E110.04025
G1 X105.397 Y88.155 E110.07818
G1 X106.54 Y88.836 E110.11582
G1 X107.573 Y89.639 E110.15284
G1 X108.518 Y90.536 E110.18971
G1 X109.367 Y91.548 E110.22708
G1 X110.106 Y92.622 E110.26397
G1 X110.727 Y93.757 E110.30058
G1 X111.243 Y94.94 E110.33709
G1 X111.384 Y95.343 E110.34917
G1 X111.593 Y96.021 E110.36925
G1 X111.747 Y96.688 E110.38862
G1 X111.913 Y97.29 E110.40629
G1 X112.12 Y99.048 E110.45637
G1 X112.13 Y99.472 E110.46837
G1 X112.109 Y100.309 E110.49206
G1 X112.078 Y100.718 E110.50366
G1 X111.897 Y102.021 E110.54088
G1 X111.69 Y102.885 E110.56601
G0 F7800 X110.329 Y102.551
; TYPE:FILL
G1 F1764 X110.001 Y102.222 E110.57912
G0 F7800 X110.143 Y102.484
G1 F1764 X92.099 Y107.319 E111.10764
G0 F7800 X92.044 Y106.894
G1 F1764 X90.924 Y105.773 E111.15244
G0 F7800 X91.083 Y105.225
G1 F1764 X90.303 Y104.445 E111.18361
G0 F7800 X90.549 Y103.985
G1 F1764 X90.018 Y103.099 E111.21093
G1 X89.771 Y102.145 E111.23326
G1 X89.595 Y101.263 E111.25344
G1 X89.315 Y100.629 E111.27301
G0 F7800 X89.508 Y100.615
G1 F1764 X91.592 Y92.84 E111.50074
G0 F7800 X91.433 Y92.848
G1 F1764 X91.815 Y92.876 E111.50999
G1 X91.88 Y92.234 E111.51977
G1 X92.286 Y92.286 E111.53135
G0 F7800 X92.145 Y92.145
G1 F1764 X107.652 Y107.652 E112.15184
G0 F7800 X107.76 Y107.76
G1 F1764 X107.356 Y107.709 E112.16182
G1 X107.273 Y108.334 E112.1712
G1 X106.874 Y108.288 E112.18253
G0 F7800 X106.746 Y108.726
G1 F1764 X110.106 Y96.187 E112.5498
G0 F7800 X110.1 Y95.958
G1 F1764 X109.636 Y95.494 E112.56833
G0 F7800 X109.59 Y94.868
G1 F1764 X89.476 Y100.257 E113.15748
G0 F7800 X89.463 Y100.069
G1 F1764 X101.318 Y111.925 E113.63187
G0 F7800 X101.728 Y111.628
G1 F1764 X101.89 Y111.79 E113.63835
G0 F7800 X102.058 Y111.733
G1 F1764 X107.427 Y91.696 E114.22526
G0 F7800 X107.321 Y91.594
G1 F1764 X89.862 Y96.272 E114.73664
G0 F7800 X89.82 Y96.184
G1 F1764 X89.848 Y96.566 E114.74514
G1 X89.712 Y97.136 E114.75469
G1 X89.595 Y97.727 E114.76477
G1 X89.518 Y98.357 E114.77562
G1 X89.463 Y99.009 E114.78769
G1 X89.455 Y99.709 E114.80199
G1 X89.68 Y100.287 E114.81954
G0 F7800 X90.309 Y103.916
G0 X90.309 Y103.916
G1 F1764 X110.525 Y98.5 E115.4117
G0 F7800 X110.664 Y98.643
G1 F1764 X110.442 Y98.068 E115.42579
G1 X110.285 Y97.204 E115.44088
G1 X109.997 Y96.562 E115.46075
G0 F7800 X109.657 Y94.808
G0 X109.657 Y94.808
G1 F1764 X108.996 Y94.147 E115.48716
G0 F7800 X108.905 Y93.348
G1 F1764 X105.261 Y89.704 E115.63293
G0 F7800 X104.724 Y89.875
G1 F1764 X103.839 Y88.99 E115.66831
G0 F7800 X103.475 Y89.333
G1 F1764 X102.775 Y88.633 E115.69628
G0 F7800 X102.808 Y88.921
G1 F1764 X92.582 Y91.661 E115.99579
G0 F7800 X92.362 Y91.655
G1 F1764 X92.793 Y91.733 E116.0059
G1 X92.891 Y91.123 E116.01638
G1 X93.532 Y91.057 E116.02695
G1 X93.644 Y90.462 E116.03817
G1 X94.332 Y90.442 E116.04919
G1 X94.462 Y89.865 E116.06129
G1 X94.981 Y90.031 E116.0767
G0 F7800 X95.062 Y89.759
G1 F1764 X109.552 Y104.249 E116.65651
G0 F7800 X109.806 Y104.149
G1 F1764 X109.399 Y104.096 E116.66855
G1 X109.498 Y104.901 E116.68104
G1 X108.974 Y105.086 E116.69297
G1 X109.026 Y105.843 E116.70447
G1 X108.484 Y106.009 E116.71607
G1 X108.496 Y106.728 E116.72713
G1 X108.089 Y106.675 E116.73872
G0 F7800 X108.185 Y106.891
G1 F1764 X95.161 Y110.381 E117.12019
G0 F7800 X95.538 Y110.387
G1 F1764 X96.633 Y111.128 E117.14638
G1 X97.447 Y111.589 E117.17285
G0 F7800 X98.157 Y111.805
G1 F1764 X104.161 Y89.397 E117.8292
G0 F7800 X102.461 Y89.026
G0 X102.461 Y89.026
G1 F1764 X101.727 Y88.645 E117.85294
G1 X100.918 Y88.544 E117.87487
G1 X100.284 Y88.263 E117.89445
G0 F7800 X100.501 Y88.567
G1 F1764 X94.738 Y110.073 E118.52441
G0 F7800 X94.224 Y109.78
G1 F1764 X92.358 Y107.915 E118.59901
G0 F7800 X91.738 Y106.783
G1 F1764 X96.463 Y89.149 E119.11553
G0 F7800 X96.438 Y89.366
G1 F1764 X95.846 Y89.128 E119.12936
G1 X95.695 Y89.685 E119.14271
G1 X95.127 Y89.47 E119.15986
G0 F7800 X96.604 Y88.826
G0 X96.604 Y88.826
G1 F1764 X97.056 Y88.925 E119.17453
G1 X97.609 Y88.771 E119.18943
G1 X98.201 Y88.655 E119.20533
G1 X98.717 Y88.818 E119.22064
G0 F7800 X99.186 Y88.579
G1 F1764 X110.542 Y99.936 E119.67506
G0 F7800 X110.712 Y100.105
G1 F1764 X110.54 Y99.58 E119.68932
G1 X110.351 Y99.038 E119.70552
G0 F7800 X110.307 Y100.407
G1 F1764 X110.444 Y100.899 E119.71954
G1 X110.347 Y101.508 E119.73308
G1 X110.466 Y101.981 E119.74688
G0 F7800 X109.857 Y102.786
G1 F1764 X109.93 Y103.212 E119.75967
G1 X110.004 Y103.64 E119.77196
G0 F7800 X107.804 Y107.096
G0 X107.804 Y107.096
G1 F1764 X108.068 Y107.361 E119.78254
G0 F7800 X106.762 Y108.883
G0 X106.762 Y108.883
G1 F1764 X106.361 Y108.836 E119.79152
G1 X106.212 Y109.394 E119.79988
G1 X105.627 Y109.515 E119.80825
G1 X105.431 Y110.027 E119.81622
G1 X105.036 Y109.986 E119.82742
G0 F7800 X104.978 Y110.281
G1 F1764 X90.154 Y95.458 E120.42053
G0 F7800 X89.987 Y95.644
G1 F1764 X90.313 Y95.617 E120.42964
G1 X90.407 Y95.003 E120.43848
G1 X90.633 Y94.523 E120.44717
G1 X90.761 Y93.943 E120.45617
G1 X91.246 Y93.721 E120.465
G1 X91.145 Y93.266 E120.47816
G0 F7800 X98.918 Y88.311
G0 X98.918 Y88.311
G1 F1764 X99.481 Y88.521 E120.49662
G1 X100.064 Y88.751 E120.51435
G0 F7800 X104.623 Y110.28
G0 X104.623 Y110.28
G1 F1764 X104.596 Y110.607 E120.52206
G1 X104.054 Y110.772 E120.52939
G1 X103.592 Y111.017 E120.53627
G1 X103.114 Y111.246 E120.5428
G1 X102.611 Y111.45 E120.54939
G1 X102.263 Y111.456 E120.55921
G0 F7800 X90.761 Y107.884
G0 X90.761 Y107.884
G0 X90.479 Y108.09
G0 X90.479 Y108.09 Z2.5
; LAYER:5
G0 X90.479 Y108.09
G0 X90.889 Y107.803
; TYPE:WALL-INNER
G1 F900 X89.986 Y106.358 E120.60738
G1 X89.373 Y105.109 E120.64671
G1 X89.24 Y104.785 E120.65658
G1 X88.813 Y103.624 E120.69155
G1 X88.415 Y102.099 E120.73611
G1 X88.199 Y100.443 E120.78333
G1 X88.201 Y99.062 E120.82237
G1 X88.268 Y98.444 E120.83993
G1 X88.447 Y97.214 E120.87507
G1 X88.691 Y96.18 E120.90511
G1 X89.14 Y94.859 E120.94456
G1 X89.604 Y93.807 E120.97706
G1 X90.273 Y92.619 E121.01561
G1 X90.941 Y91.65 E121.04889
G1 X91.817 Y90.633 E121.08685
G1 X92.725 Y89.765 E121.12237
G1 X93.731 Y89.011 E121.15792
G1 X94.828 Y88.36 E121.194
G1 X95.994 Y87.833 E121.2302
G1 X97.247 Y87.442 E121.26733
G1 X98.6 Y87.199 E121.30622
G1 X99.998 Y87.126 E121.34582
G1 X101.395 Y87.199 E121.3854
G1 X102.748 Y87.442 E121.4243
G1 X104.001 Y87.833 E121.46144
G1 X105.17 Y88.362 E121.49774
G1 X106.261 Y89.008 E121.53362
G1 X107.27 Y89.765 E121.56931
G1 X108.175 Y90.631 E121.60475
G1 X109.013 Y91.593 E121.64085
G1 X109.725 Y92.623 E121.67627
G1 X110.351 Y93.721 E121.71204
G1 X110.857 Y94.866 E121.74746
G1 X111.261 Y96.026 E121.78221
G1 X111.461 Y96.888 E121.80725
G1 X111.547 Y97.198 E121.81635
G1 X111.615 Y97.619 E121.82842
G1 X111.793 Y99.049 E121.86919
G1 X111.8 Y100.378 E121.90679
G1 X111.588 Y102.063 E121.95484
G1 X111.181 Y103.629 E122.00061
G1 X111.052 Y104.005 E122.01185
G1 X110.613 Y105.13 E122.04601
G1 X110.265 Y105.857 E122.0688
G1 X109.912 Y106.531 E122.09032
G1 X109.162 Y107.726 E122.13022
G1 X108.185 Y108.973 E122.17503
G1 X107.599 Y109.578 E122.19884
G1 X106.908 Y110.244 E122.22597
G1 X106.17 Y110.827 E122.25256
G1 X105.538 Y111.28 E122.27454
G1 X104.274 Y112 E122.31567
G1 X103.817 Y112.221 E122.33001
G1 X103.467 Y112.366 E122.3407
G1 X102.647 Y112.657 E122.3653
G1 X101.924 Y112.867 E122.38657
G1 X101.267 Y113.01 E122.40557
G1 X100.596 Y113.097 E122.42468
G1 X100.013 Y113.126 E122.44117
G1 X99.391 Y113.096 E122.45876
G1 X98.776 Y113.02 E122.47626
G1 X98.22 Y112.901 E122.49232
G1 X97.346 Y112.657 E122.51796
G1 X96.433 Y112.327 E122.54539
G1 X95.867 Y112.071 E122.56293
G1 X95.212 Y111.718 E122.58394
G1 X94.461 Y111.282 E122.60848
G1 X93.825 Y110.827 E122.63056
G1 X93.084 Y110.242 E122.65723
G1 X92.805 Y109.985 E122.66793
G1 X91.828 Y108.995 E122.70724
G1 X90.889 Y107.803 E122.75014
G0 F7800 X91.294 Y107.509
G1 F900 X90.431 Y106.127 E122.7962
G1 X89.827 Y104.899 E122.83488
G1 X89.293 Y103.482 E122.87769
G1 X88.907 Y102.001 E122.92096
G1 X88.699 Y100.403 E122.96652
G1 X88.7 Y99.091 E123.00362
G1 X88.763 Y98.513 E123.02004
G1 X88.939 Y97.31 E123.05441
G1 X89.174 Y96.311 E123.08342
G1 X89.603 Y95.051 E123.12106
G1 X90.057 Y94.019 E123.15293
G1 X90.69 Y92.895 E123.1894
G1 X91.34 Y91.952 E123.22179
G1 X92.175 Y90.984 E123.25794
G1 X93.054 Y90.144 E123.29232
G1 X94.01 Y89.427 E123.32611
G1 X95.056 Y88.806 E123.36052
G1 X96.177 Y88.299 E123.39532
G1 X97.366 Y87.928 E123.43055
G1 X98.659 Y87.696 E123.46771
G1 X99.998 Y87.626 E123.50565
G1 X101.336 Y87.696 E123.54356
G1 X102.629 Y87.928 E123.58073
G1 X103.818 Y88.299 E123.61597
G1 X104.943 Y88.808 E123.65091
G1 X105.982 Y89.424 E123.68508
G1 X106.941 Y90.144 E123.71901
G1 X107.821 Y90.985 E123.75345
G1 X108.616 Y91.897 E123.78768
G1 X109.303 Y92.892 E123.8219
G1 X109.906 Y93.948 E123.8563
G1 X110.392 Y95.049 E123.89035
G1 X110.78 Y96.162 E123.92371
G1 X110.976 Y97.012 E123.94839
G1 X111.056 Y97.297 E123.95676
G1 X111.125 Y97.725 E123.96903
G1 X111.292 Y99.072 E124.00743
G1 X111.299 Y100.351 E124.04362
G1 X111.097 Y101.967 E124.0897
G1 X110.701 Y103.487 E124.13413
G1 X110.582 Y103.835 E124.14453
G1 X110.155 Y104.929 E124.17775
G1 X109.818 Y105.633 E124.19982
G1 X109.481 Y106.276 E124.22035
G1 X108.753 Y107.436 E124.25908
G1 X107.799 Y108.654 E124.30284
G1 X107.256 Y109.214 E124.32489
G1 X106.577 Y109.869 E124.35156
G1 X105.865 Y110.431 E124.37721
G1 X105.271 Y110.856 E124.39785
G1 X104.038 Y111.559 E124.43798
G1 X103.63 Y111.756 E124.45078
G1 X103.271 Y111.906 E124.46176
G1 X102.509 Y112.176 E124.48461
G1 X101.785 Y112.386 E124.50591
G1 X101.187 Y112.516 E124.52319
G1 X100.545 Y112.599 E124.54148
G1 X100.022 Y112.625 E124.55627
G1 X99.424 Y112.597 E124.57318
G1 X98.86 Y112.527 E124.58923
G1 X98.349 Y112.418 E124.60398
G1 X97.489 Y112.177 E124.62921
G1 X96.632 Y111.868 E124.65495
G1 X96.076 Y111.616 E124.67219
G1 X95.452 Y111.28 E124.6922
G1 X94.731 Y110.861 E124.71576
G1 X94.13 Y110.431 E124.73663
G1 X93.414 Y109.866 E124.7624
G1 X93.131 Y109.605 E124.77325
G1 X92.216 Y108.679 E124.81004
G1 X91.294 Y107.509 E124.85215
G0 F7800 X90.479 Y108.09
; TYPE:WALL-OUTER
G1 F630 X89.646 Y106.775 E124.89615
G1 X88.918 Y105.319 E124.94218
G1 X88.773 Y104.964 E124.95299
G1 X88.333 Y103.767 E124.98904
G1 X87.923 Y102.194 E125.035
G1 X87.702 Y100.494 E125.08347
G1 X87.691 Y100.242 E125.09058
G1 X87.701 Y99.034 E125.12473
G1 X87.771 Y98.39 E125.14303
G1 X87.955 Y97.119 E125.17934
G1 X88.208 Y96.05 E125.21039
G1 X88.673 Y94.682 E125.25125
G1 X89.16 Y93.575 E125.28544
G1 X89.845 Y92.359 E125.3249
G1 X90.551 Y91.336 E125.36005
G1 X91.443 Y90.3 E125.39871
G1 X92.406 Y89.38 E125.43637
G1 X93.452 Y88.595 E125.47336
G1 X94.593 Y87.918 E125.51088
G1 X95.818 Y87.364 E125.54891
G1 X97.13 Y86.955 E125.58779
G1 X98.54 Y86.701 E125.62832
G1 X99.998 Y86.626 E125.66963
G1 X101.455 Y86.701 E125.7109
G1 X102.865 Y86.955 E125.75144
G1 X104.177 Y87.364 E125.79033
G1 X105.405 Y87.92 E125.82847
G1 X106.54 Y88.593 E125.8658
G1 X107.589 Y89.38 E125.90291
G1 X108.545 Y90.293 E125.94031
G1 X109.404 Y91.28 E125.97733
G1 X110.153 Y92.363 E126.01459
G1 X110.796 Y93.491 E126.05133
G1 X111.326 Y94.691 E126.08844
G1 X111.742 Y95.886 E126.12424
G1 X111.946 Y96.765 E126.14978
G1 X112.034 Y97.083 E126.15911
G1 X112.111 Y97.557 E126.1727
G1 X112.294 Y99.025 E126.21456
G1 X112.3 Y100.406 E126.25363
G1 X112.08 Y102.16 E126.30364
G1 X111.662 Y103.767 E126.35062
G1 X111.52 Y104.182 E126.36302
G1 X111.075 Y105.324 E126.39769
G1 X110.714 Y106.078 E126.42133
G1 X110.349 Y106.775 E126.44358
G1 X109.573 Y108.011 E126.48486
G1 X108.558 Y109.306 E126.53139
G1 X107.958 Y109.926 E126.55578
G1 X107.233 Y110.625 E126.58426
G1 X106.476 Y111.223 E126.61153
G1 X105.809 Y111.701 E126.63473
G1 X104.51 Y112.441 E126.677
G1 X104.033 Y112.672 E126.69197
G1 X103.641 Y112.835 E126.70396
G1 X102.8 Y113.133 E126.72918
G1 X102.035 Y113.355 E126.75169
G1 X101.357 Y113.503 E126.7713
G1 X100.647 Y113.594 E126.79152
G1 X100.014 Y113.626 E126.80943
G1 X99.346 Y113.594 E126.82832
G1 X98.688 Y113.513 E126.84704
G1 X98.106 Y113.388 E126.86385
G1 X97.181 Y113.129 E126.891
G1 X96.255 Y112.795 E126.91881
G1 X95.641 Y112.517 E126.93785
G1 X94.96 Y112.15 E126.9597
G1 X94.19 Y111.704 E126.98484
G1 X93.519 Y111.223 E127.00816
G1 X92.761 Y110.624 E127.03545
G1 X92.461 Y110.348 E127.04695
G1 X91.438 Y109.308 E127.08818
G1 X90.479 Y108.09 E127.132
G0 F7800 X91.543 Y107.153
; TYPE:FILL
G1 F1800 X91.776 Y106.92 E127.14131
G0 F7800 X91.654 Y107.095
G1 F1800 X96.547 Y88.836 E127.67613
G0 F7800 X96.711 Y88.55
G1 F1800 X96.008 Y89.253 E127.70424
G0 F7800 X95.519 Y89.035
G1 F1800 X94.519 Y90.035 E127.74424
G0 F7800 X94.881 Y89.578
G1 F1800 X109.748 Y104.445 E128.33912
G0 F7800 X109.981 Y104.272
G1 F1800 X109.32 Y104.932 E128.36553
G0 F7800 X109.407 Y105.552
G1 F1800 X108.507 Y106.452 E128.40153
G0 F7800 X108.542 Y106.796
G1 F1800 X94.911 Y110.448 E128.80078
G0 F7800 X94.708 Y110.352
G1 F1800 X94.874 Y110.186 E128.8074
G0 F7800 X94.679 Y110.296
G1 F1800 X100.572 Y88.3 E129.45168
G0 F7800 X100.733 Y88.064
G1 F1800 X100.182 Y88.26 E129.46877
G1 X99.457 Y88.278 E129.48733
G1 X98.859 Y88.523 E129.50559
G0 F7800 X98.927 Y88.32
G1 F1800 X110.774 Y100.168 E129.97966
G0 F7800 X110.575 Y100.142
G1 F1800 X110.751 Y99.612 E129.9924
G1 X110.731 Y98.925 E130.00366
G1 X110.815 Y98.487 E130.01625
G0 F7800 X110.755 Y98.438
G1 F1800 X90.061 Y103.983 E130.6224
G0 F7800 X89.869 Y103.877
G1 F1800 X89.907 Y103.485 E130.63316
G1 X89.749 Y102.936 E130.64481
G1 X89.598 Y102.38 E130.65606
G1 X89.474 Y101.797 E130.66798
G1 X89.559 Y101.359 E130.68058
G0 F7800 X89.337 Y101.255
G1 F1800 X91.742 Y92.278 E130.9435
G0 F7800 X91.701 Y92.146
G1 F1800 X93.656 Y90.191 E131.02171
G0 F7800 X92.152 Y91.776
G0 X92.152 Y91.776
G1 F1800 X103.296 Y88.79 E131.34814
G0 F7800 X103.323 Y89.009
G1 F1800 X103.907 Y88.778 E131.36171
G1 X103.848 Y89.191 E131.37351
G0 F7800 X104.228 Y89.145
G1 F1800 X98.121 Y111.938 E132.04116
G0 F7800 X95.734 Y110.74
G0 X95.734 Y110.74
G1 F1800 X95.443 Y110.677 E132.0472
G1 X95.134 Y110.633 E132.056
G0 F7800 X94.477 Y109.875
G1 F1800 X94.101 Y109.898 E132.06308
G1 X93.905 Y109.387 E132.07061
G1 X93.342 Y109.243 E132.07839
G1 X93.192 Y108.686 E132.08627
G1 X92.639 Y108.531 E132.09458
G1 X92.527 Y107.936 E132.10319
G1 X91.999 Y107.757 E132.11172
G1 X92.073 Y107.331 E132.12393
G0 F7800 X91.862 Y107.383
G1 F1800 X110.409 Y102.413 E132.66721
G0 F7800 X110.614 Y102.224
G1 F1800 X110.251 Y102.94 E132.68632
G1 X109.811 Y103.734 E132.712
G0 F7800 X110.347 Y101.784
G0 X110.347 Y101.784
G1 F1800 X110.633 Y101.144 E132.72879
G1 X110.87 Y100.554 E132.74676
G0 F7800 X110.534 Y98.061
G0 X110.534 Y98.061
G1 F1800 X110.574 Y97.667 E132.75485
G1 X110.458 Y97.076 E132.76349
G1 X110.316 Y96.512 E132.77157
G1 X110.345 Y96.129 E132.78241
G0 F7800 X110.2 Y95.838
G1 F1800 X106.63 Y109.161 E133.17266
G0 F7800 X105.39 Y110.277
G0 X105.39 Y110.277
G1 F1800 X108.289 Y107.378 E133.28864
G0 F7800 X107.814 Y107.814
G1 F1800 X91.983 Y91.983 E133.92207
G0 F7800 X91.268 Y93.286
G1 F1800 X90.49 Y94.064 E133.95318
G0 F7800 X90.392 Y94.868
G1 F1800 X89.929 Y95.332 E133.9717
G0 F7800 X90.004 Y95.307
G1 F1800 X105.116 Y110.419 E134.5764
G0 F7800 X104.166 Y110.793
G1 F1800 X103.666 Y111.294 E134.5964
G0 F7800 X102.013 Y111.902
G0 X102.013 Y111.902
G1 F1800 X107.499 Y91.427 E135.19613
G0 F7800 X107.594 Y91.52
G1 F1800 X89.638 Y96.332 E135.72208
G0 F7800 X89.564 Y96.404
G1 F1800 X89.806 Y96.516 E135.73674
G1 X89.419 Y97.61 E135.75019
G1 X89.321 Y98.415 E135.76116
G1 X89.25 Y99.193 E135.77349
G1 X89.099 Y99.697 E135.78837
G0 F7800 X89.197 Y99.804
G1 F1800 X101.443 Y112.05 E136.27838
G0 F7800 X91.503 Y106.486
G0 X91.503 Y106.486
G1 F1800 X91.135 Y106.499 E136.28757
G1 X91.115 Y105.813 E136.29715
G1 X90.619 Y105.602 E136.30728
G1 X90.512 Y105.001 E136.31735
G1 X90.3 Y104.507 E136.328
G1 X90.331 Y104.122 E136.3389
G0 F7800 X89.184 Y101.027
G0 X89.184 Y101.027
G1 F1800 X89.474 Y100.737 E136.35048
G0 F7800 X89.232 Y100.323
G1 F1800 X109.795 Y94.813 E136.95282
G0 F7800 X109.754 Y94.598
G1 F1800 X109.77 Y94.936 E136.96023
G1 X109.965 Y95.448 E136.96832
G1 X109.969 Y95.798 E136.97822
G0 F7800 X109.326 Y94.32
G0 X109.326 Y94.32
G1 F1800 X109.407 Y93.884 E136.98658
G1 X108.946 Y93.638 E136.99446
G1 X108.882 Y92.996 E137.00288
G1 X108.532 Y92.993 E137.01275
G0 F7800 X108.525 Y92.615
G1 F1800 X106.126 Y90.216 E137.10871
G0 F7800 X106.363 Y90.211
G1 F1800 X106.311 Y90.617 E137.11869
G1 X106.939 Y90.695 E137.12864
G1 X107.062 Y91.28 E137.13815
G1 X107.648 Y91.401 E137.14776
G1 X107.76 Y91.997 E137.15641
G1 X108.298 Y92.166 E137.16528
G1 X108.241 Y92.576 E137.17699
G0 F7800 X105.701 Y90.167
G0 X105.701 Y90.167
G1 F1800 X105.747 Y89.766 E137.18727
G1 X105.038 Y89.768 E137.19821
G1 X104.865 Y89.235 E137.20915
G1 X104.332 Y89.414 E137.22503
G0 F7800 X103.124 Y88.501
G0 X103.124 Y88.501
G1 F1800 X102.686 Y88.584 E137.2384
G1 X102.105 Y88.459 E137.2529
G1 X101.508 Y88.348 E137.26748
G1 X100.986 Y88.517 E137.28297
G0 F7800 X98.555 Y88.12
G0 X98.555 Y88.12
G1 F1800 X97.858 Y88.463 E137.30418
G1 X97.102 Y88.866 E137.3284
G0 F7800 X89.417 Y100.086
G0 X89.417 Y100.086
G1 F1800 X89.102 Y100.402 E137.341
G0 F7800 X88.949 Y104.998
G0 X88.949 Y104.998
G0 X88.625 Y105.131
G0 X88.625 Y105.131 Z2.9
; LAYER:6
G0 X88.625 Y105.131
G0 X89.089 Y104.943
; TYPE:WALL-INNER
G1 F918 X88.552 Y103.414 E137.38682
G1 X88.196 Y101.863 E137.43181
G1 X88.074 Y100.913 E137.45888
G1 X88.037 Y100.362 E137.47447
G1 X88.042 Y98.979 E137.51357
G1 X88.33 Y96.984 E137.57058
G1 X88.648 Y95.789 E137.60554
G1 X89.057 Y94.613 E137.64074
G1 X89.594 Y93.472 E137.6764
G1 X90.205 Y92.395 E137.71141
G1 X90.959 Y91.351 E137.74782
G1 X91.789 Y90.392 E137.78369
G1 X92.718 Y89.536 E137.81941
G1 X93.729 Y88.778 E137.85515
G1 X94.785 Y88.15 E137.88989
G1 X95.993 Y87.617 E137.92724
G1 X97.252 Y87.229 E137.96451
G1 X98.604 Y86.984 E138.00338
G1 X99.998 Y86.919 E138.04286
G1 X101.391 Y86.984 E138.08232
G1 X102.743 Y87.229 E138.1212
G1 X104.006 Y87.618 E138.15859
G1 X105.103 Y88.098 E138.19247
G1 X106.266 Y88.778 E138.23059
G1 X107.277 Y89.536 E138.26634
G1 X108.206 Y90.392 E138.30208
G1 X109.038 Y91.353 E138.33805
G1 X109.764 Y92.354 E138.37304
G1 X110.402 Y93.474 E138.40951
G1 X110.93 Y94.596 E138.44459
G1 X111.349 Y95.798 E138.48061
G1 X111.631 Y96.842 E138.51121
G1 X111.79 Y97.746 E138.53718
G1 X111.952 Y98.964 E138.57194
G1 X111.941 Y99.703 E138.59285
G1 X111.957 Y100.371 E138.61176
G1 X111.921 Y100.913 E138.62713
G1 X111.8 Y101.857 E138.65405
G1 X111.595 Y102.828 E138.68212
G1 X111.441 Y103.418 E138.69937
G1 X110.957 Y104.813 E138.74114
G1 X110.221 Y106.377 E138.79004
G1 X109.39 Y107.723 E138.83478
G1 X108.42 Y108.974 E138.87955
G1 X108.077 Y109.346 E138.89385
G1 X107.305 Y110.118 E138.92472
G1 X106.016 Y111.152 E138.97145
G1 X104.267 Y112.165 E139.02862
G1 X103.321 Y112.565 E139.05765
G1 X102.566 Y112.831 E139.08027
G1 X101.865 Y113.019 E139.10078
G1 X101.209 Y113.141 E139.11963
G1 X100.585 Y113.216 E139.13739
G1 X99.998 Y113.235 E139.15398
G1 X99.41 Y113.216 E139.17059
G1 X98.786 Y113.141 E139.18834
G1 X98.134 Y113.019 E139.20708
G1 X97.516 Y112.856 E139.22513
G1 X96.655 Y112.557 E139.25088
G1 X95.819 Y112.21 E139.27645
G1 X94.577 Y111.525 E139.31655
G1 X93.985 Y111.157 E139.33623
G1 X92.967 Y110.356 E139.37284
G1 X92.686 Y110.114 E139.38329
G1 X91.918 Y109.346 E139.41399
G1 X91.569 Y108.967 E139.42852
G1 X90.846 Y108.052 E139.46148
G1 X90.607 Y107.725 E139.4729
G1 X89.772 Y106.374 E139.5178
G1 X89.089 Y104.943 E139.56262
G0 F7800 X89.549 Y104.746
G1 F918 X89.034 Y103.279 E139.60658
G1 X88.689 Y101.775 E139.65021
G1 X88.572 Y100.865 E139.67613
G1 X88.537 Y100.344 E139.69088
G1 X88.542 Y99.008 E139.72865
G1 X88.822 Y97.079 E139.78377
G1 X89.124 Y95.945 E139.81695
G1 X89.524 Y94.794 E139.8514
G1 X90.035 Y93.708 E139.88533
G1 X90.628 Y92.663 E139.91931
G1 X91.352 Y91.661 E139.95426
G1 X92.145 Y90.744 E139.98854
G1 X93.041 Y89.919 E140.02298
G1 X94.01 Y89.192 E140.05724
G1 X95.007 Y88.599 E140.09005
G1 X96.18 Y88.082 E140.12631
G1 X97.364 Y87.717 E140.16136
G1 X98.656 Y87.482 E140.19851
G1 X99.998 Y87.42 E140.23652
G1 X101.339 Y87.482 E140.2745
G1 X102.631 Y87.717 E140.31166
G1 X103.823 Y88.084 E140.34694
G1 X104.876 Y88.544 E140.37946
G1 X105.99 Y89.196 E140.41598
G1 X106.954 Y89.919 E140.45007
G1 X107.85 Y90.744 E140.48453
G1 X108.646 Y91.664 E140.51896
G1 X109.341 Y92.623 E140.55247
G1 X109.962 Y93.711 E140.58791
G1 X110.465 Y94.782 E140.62139
G1 X110.87 Y95.943 E140.65618
G1 X111.145 Y96.958 E140.68594
G1 X111.293 Y97.803 E140.71021
G1 X111.452 Y98.996 E140.74426
G1 X111.441 Y99.705 E140.76432
G1 X111.457 Y100.36 E140.78286
G1 X111.423 Y100.865 E140.79718
G1 X111.306 Y101.775 E140.82314
G1 X111.109 Y102.709 E140.85014
G1 X110.961 Y103.279 E140.8668
G1 X110.494 Y104.624 E140.90707
G1 X109.785 Y106.131 E140.95418
G1 X108.9 Y107.547 E141.00141
G1 X108.035 Y108.655 E141.04117
G1 X107.733 Y108.982 E141.05374
G1 X106.837 Y109.862 E141.08926
G1 X105.732 Y110.739 E141.12915
G1 X104.041 Y111.718 E141.18441
G1 X103.152 Y112.094 E141.2117
G1 X102.416 Y112.353 E141.23375
G1 X101.756 Y112.53 E141.25305
G1 X101.122 Y112.648 E141.27127
G1 X100.543 Y112.718 E141.28774
G1 X99.998 Y112.736 E141.30314
G1 X99.452 Y112.718 E141.31857
G1 X98.873 Y112.648 E141.33504
G1 X98.236 Y112.529 E141.35334
G1 X97.658 Y112.376 E141.37023
G1 X96.848 Y112.095 E141.39445
G1 X96.033 Y111.758 E141.41937
G1 X95.834 Y111.66 E141.4256
G1 X94.836 Y111.098 E141.45797
G1 X94.276 Y110.749 E141.4766
G1 X93.285 Y109.97 E141.51223
G1 X93.034 Y109.754 E141.52156
G1 X92.262 Y108.982 E141.55241
G1 X91.958 Y108.652 E141.56507
G1 X91.239 Y107.743 E141.59782
G1 X91.025 Y107.45 E141.60804
G1 X90.21 Y106.13 E141.6519
G1 X89.549 Y104.746 E141.69526
G0 F7800 X88.625 Y105.131
; TYPE:WALL-OUTER
G1 F642.6 X88.076 Y103.567 E141.74212
G1 X87.701 Y101.94 E141.78933
G1 X87.576 Y100.96 E141.81725
G1 X87.537 Y100.382 E141.83361
G1 X87.542 Y98.943 E141.8743
G1 X87.649 Y98.131 E141.89744
G1 X87.84 Y96.879 E141.93325
G1 X88.17 Y95.643 E141.96942
G1 X88.597 Y94.415 E142.00618
G1 X89.147 Y93.246 E142.04271
G1 X89.781 Y92.127 E142.07907
G1 X90.566 Y91.041 E142.11696
G1 X91.432 Y90.04 E142.15439
G1 X92.395 Y89.153 E142.19142
G1 X93.45 Y88.362 E142.22871
G1 X94.553 Y87.706 E142.26501
G1 X95.821 Y87.147 E142.3042
G1 X97.132 Y86.742 E142.34302
G1 X98.544 Y86.486 E142.38362
G1 X99.998 Y86.419 E142.4248
G1 X101.451 Y86.486 E142.46595
G1 X102.863 Y86.742 E142.50656
G1 X104.177 Y87.148 E142.54547
G1 X105.33 Y87.651 E142.58106
G1 X106.545 Y88.362 E142.62089
G1 X107.6 Y89.153 E142.6582
G1 X108.563 Y90.04 E142.69525
G1 X109.431 Y91.043 E142.73278
G1 X110.184 Y92.083 E142.76911
G1 X110.851 Y93.252 E142.80719
G1 X111.392 Y94.402 E142.84315
G1 X111.831 Y95.661 E142.88087
G1 X112.121 Y96.735 E142.91235
G1 X112.281 Y97.649 E142.9386
G1 X112.453 Y98.94 E142.97545
G1 X112.441 Y99.7 E142.99696
G1 X112.458 Y100.381 E143.01623
G1 X112.419 Y100.96 E143.03265
G1 X112.294 Y101.937 E143.06052
G1 X112.081 Y102.943 E143.08961
G1 X111.918 Y103.572 E143.10798
G1 X111.422 Y105.002 E143.1508
G1 X110.665 Y106.609 E143.20105
G1 X109.802 Y108.007 E143.24752
G1 X108.8 Y109.3 E143.29378
G1 X108.452 Y109.677 E143.30828
G1 X107.64 Y110.489 E143.34075
G1 X106.293 Y111.57 E143.3896
G1 X104.49 Y112.614 E143.44852
G1 X103.518 Y113.025 E143.47836
G1 X102.707 Y113.31 E143.50265
G1 X101.982 Y113.505 E143.52387
G1 X101.27 Y113.638 E143.54433
G1 X100.626 Y113.715 E143.56266
G1 X99.998 Y113.736 E143.58041
G1 X99.369 Y113.715 E143.59819
G1 X98.725 Y113.638 E143.61651
G1 X98.023 Y113.507 E143.63668
G1 X97.358 Y113.331 E143.65611
G1 X96.488 Y113.029 E143.68213
G1 X95.617 Y112.668 E143.70877
G1 X95.385 Y112.553 E143.71606
G1 X94.325 Y111.957 E143.75043
G1 X93.701 Y111.569 E143.77118
G1 X92.646 Y110.739 E143.80912
G1 X92.353 Y110.487 E143.82001
G1 X91.543 Y109.677 E143.85238
G1 X91.194 Y109.298 E143.86692
G1 X90.448 Y108.354 E143.90093
G1 X90.187 Y107.997 E143.9134
G1 X89.334 Y106.615 E143.95931
G1 X88.625 Y105.131 E144.00581
G0 F7800 X90.079 Y104.928
; TYPE:FILL
G1 F1836 X90.72 Y105.569 E144.03146
G0 F7800 X90.852 Y106.408
G1 F1836 X91.812 Y107.368 E144.06987
G0 F7800 X91.623 Y107.447
G1 F1836 X110.684 Y102.34 E144.6282
G0 F7800 X110.785 Y102.299
G1 F1836 X110.726 Y101.887 E144.63778
G1 X110.821 Y101.275 E144.64793
G1 X110.897 Y100.644 E144.65766
G1 X110.813 Y100.206 E144.67025
G0 F7800 X110.997 Y100.39
G1 F1836 X98.683 Y88.076 E145.16294
G0 F7800 X98.519 Y87.912
G1 F1836 X99.022 Y88.062 E145.17714
G1 X99.697 Y88.03 E145.19217
G1 X100.245 Y88.224 E145.20861
G0 F7800 X100.642 Y88.043
G1 F1836 X94.628 Y110.484 E145.86596
G0 F7800 X94.668 Y110.513
G1 F1836 X108.842 Y106.715 E146.28115
G0 F7800 X108.904 Y106.783
G1 F1836 X108.561 Y106.793 E146.28949
G1 X108.481 Y107.42 E146.29757
G1 X107.987 Y107.634 E146.30527
G1 X108.021 Y108.021 E146.31626
G0 F7800 X107.98 Y107.98
G1 F1836 X91.831 Y91.831 E146.96241
G0 F7800 X91.796 Y91.871
G1 F1836 X103.765 Y88.664 E147.313
G0 F7800 X103.704 Y88.855
G1 F1836 X102.909 Y88.413 E147.33546
G1 X101.992 Y88.203 E147.35508
G1 X101.154 Y88.072 E147.37425
G1 X100.573 Y87.845 E147.39186
G0 F7800 X98.253 Y88.354
G0 X98.253 Y88.354
G1 F1836 X97.787 Y88.242 E147.40512
G1 X97.213 Y88.374 E147.41786
G1 X96.795 Y88.31 E147.4298
G0 F7800 X96.626 Y88.539
G1 F1836 X91.578 Y107.381 E147.98171
G0 F7800 X91.857 Y107.767
G1 F1836 X94.434 Y110.344 E148.08483
G0 F7800 X94.815 Y110.372
G1 F1836 X95.162 Y110.718 E148.09869
G0 F7800 X98.084 Y112.075
G0 X98.084 Y112.075
G1 F1836 X104.295 Y88.895 E148.77766
G0 F7800 X104.273 Y88.717
G1 F1836 X105.042 Y89.485 E148.80841
G0 F7800 X105.35 Y89.44
G1 F1836 X109.271 Y93.361 E148.9653
G0 F7800 X109.19 Y93.634
G1 F1836 X109.742 Y94.185 E148.98737
G0 F7800 X109.981 Y94.763
G1 F1836 X89.002 Y100.385 E149.60187
G0 F7800 X88.937 Y100.25
G1 F1836 X89.103 Y100.77 E149.6129
G1 X89.32 Y101.341 E149.63018
G0 F7800 X89.194 Y101.788
G1 F1836 X91.877 Y91.773 E149.92352
G0 F7800 X91.778 Y91.778
G1 F1836 X92.133 Y91.78 E149.93129
G1 X92.27 Y91.209 E149.93879
G1 X92.825 Y91.058 E149.94725
G1 X92.986 Y90.511 E149.9553
G1 X93.585 Y90.403 E149.9638
G1 X93.764 Y89.875 E149.97272
G1 X94.411 Y89.815 E149.98173
G1 X94.384 Y89.434 E149.9925
G0 F7800 X94.705 Y89.402
G1 F1836 X109.932 Y104.629 E150.6018
G0 F7800 X110.124 Y104.467
G1 F1836 X110.092 Y104.081 E150.61159
G1 X110.282 Y103.564 E150.62077
G1 X110.451 Y103.027 E150.63018
G1 X110.404 Y102.625 E150.6416
G0 F7800 X109.675 Y104.725
G0 X109.675 Y104.725
G1 F1836 X109.674 Y105.078 E150.65053
G1 X109.442 Y105.553 E150.65938
G1 X109.311 Y106.129 E150.6687
G1 X108.96 Y106.131 E150.6786
G0 F7800 X107.517 Y108.224
G0 X107.517 Y108.224
G1 F1836 X107.538 Y108.599 E150.6863
G1 X107.011 Y108.779 E150.69363
G1 X106.831 Y109.306 E150.7004
G1 X106.474 Y109.303 E150.71047
G0 F7800 X106.533 Y109.52
G1 F1836 X110.291 Y95.498 E151.12119
G0 F7800 X110.26 Y95.411
G1 F1836 X109.875 Y95.026 E151.13655
G0 F7800 X110.278 Y96.136
G1 F1836 X110.567 Y96.778 E151.14906
G1 X110.758 Y97.676 E151.15977
G1 X110.943 Y98.215 E151.17589
G0 F7800 X110.956 Y98.384
G1 F1836 X89.829 Y104.045 E151.79472
G0 F7800 X89.632 Y103.774
G1 F1836 X90.135 Y104.277 E151.81485
G0 F7800 X89.751 Y103.186
G1 F1836 X89.408 Y102.49 E151.83181
G1 X89.114 Y101.842 E151.85191
G0 F7800 X89.159 Y99.766
G0 X89.159 Y99.766
G1 F1836 X88.939 Y99.546 E151.86067
G0 F7800 X88.958 Y99.564
G1 F1836 X101.553 Y112.159 E152.36465
G0 F7800 X101.971 Y112.057
G1 F1836 X107.568 Y91.17 E152.97645
G0 F7800 X107.849 Y91.452
G1 F1836 X89.439 Y96.385 E153.5157
G0 F7800 X89.397 Y96.468
G1 F1836 X89.409 Y96.834 E153.52262
G1 X89.286 Y97.417 E153.52973
G1 X89.19 Y98.029 E153.53688
G1 X89.103 Y98.649 E153.54425
G1 X89.173 Y99.073 E153.55641
G0 F7800 X89.736 Y96.1
G0 X89.736 Y96.1
G1 F1836 X89.728 Y95.738 E153.5636
G1 X89.737 Y95.394 E153.57331
G0 F7800 X89.846 Y95.149
G1 F1836 X105.25 Y110.554 E154.1897
G0 F7800 X105.474 Y110.424
G1 F1836 X105.522 Y110.118 E154.19585
G1 X106.069 Y109.958 E154.20169
G1 X106.109 Y109.644 E154.21062
G0 F7800 X111.041 Y99.727
G0 X111.041 Y99.727
G1 F1836 X110.941 Y99.274 E154.21892
G1 X110.79 Y98.77 E154.23377
G0 F7800 X108.737 Y92.474
G0 X108.737 Y92.474
G1 F1836 X105.872 Y89.608 E154.34839
G0 F7800 X96.551 Y88.773
G0 X96.551 Y88.773
G1 F1836 X96.147 Y88.723 E154.35994
G1 X95.659 Y88.942 E154.37049
G1 X95.053 Y89.042 E154.38125
G1 X95.069 Y89.412 E154.39172
G0 F7800 X91.652 Y92.359
G0 X91.652 Y92.359
G1 F1836 X91.323 Y92.383 E154.39893
G1 X91.215 Y92.983 E154.40614
G1 X90.762 Y93.236 E154.41346
G1 X90.59 Y93.773 E154.42019
G1 X90.354 Y94.244 E154.42731
G1 X90.12 Y94.716 E154.43378
G1 X90.104 Y95.054 E154.44335
G0 F7800 X110.03 Y107.138
G0 X110.372 Y107.345
G0 X110.117 Y107.191
G0 X110.117 Y107.191
G0 X110.419 Y107.368
G0 X110.419 Y107.368 Z3.3
; LAYER:7
G0 X110.419 Y107.368
G0 X109.994 Y107.104
; TYPE:WALL-INNER
G1 F918 X109.714 Y107.553 E154.45831
G1 X108.772 Y108.822 E154.503
G1 X107.787 Y109.883 E154.54395
G1 X107.206 Y110.399 E154.56591
G1 X106.425 Y111.037 E154.59443
G1 X105.837 Y111.434 E154.61448
G1 X104.894 Y111.986 E154.64537
G1 X104.019 Y112.418 E154.67295
G1 X103.22 Y112.747 E154.69738
G1 X102.489 Y112.977 E154.71903
G1 X101.802 Y113.147 E154.73903
G1 X101.148 Y113.267 E154.75781
G1 X100.377 Y113.346 E154.77971
G1 X99.427 Y113.335 E154.80657
G1 X98.847 Y113.268 E154.82306
G1 X98.189 Y113.146 E154.84196
G1 X97.518 Y112.981 E154.86147
G1 X96.827 Y112.765 E154.88192
G1 X95.978 Y112.418 E154.90784
G1 X95.093 Y111.981 E154.93573
G1 X94.525 Y111.661 E154.95413
G1 X94.152 Y111.43 E154.96651
G1 X93.572 Y111.038 E154.98628
G1 X93.161 Y110.714 E155.00104
G1 X92.317 Y109.991 E155.03245
G1 X91.212 Y108.81 E155.07817
G1 X90.28 Y107.552 E155.12243
G1 X90.001 Y107.104 E155.13732
G1 X89.486 Y106.204 E155.16662
G1 X89.098 Y105.394 E155.192
G1 X88.828 Y104.764 E155.21135
G1 X88.359 Y103.378 E155.25272
G1 X87.983 Y101.643 E155.30291
G1 X87.891 Y100.274 E155.34171
G1 X87.914 Y98.903 E155.38047
G1 X88.039 Y97.819 E155.41132
G1 X88.237 Y96.766 E155.44161
G1 X88.559 Y95.57 E155.47663
G1 X88.999 Y94.387 E155.51231
G1 X89.536 Y93.237 E155.5482
G1 X90.191 Y92.142 E155.58428
G1 X90.934 Y91.113 E155.62016
G1 X91.781 Y90.166 E155.65609
G1 X92.711 Y89.312 E155.6918
G1 X93.722 Y88.558 E155.72746
G1 X94.819 Y87.928 E155.76324
G1 X96.007 Y87.405 E155.79996
G1 X97.254 Y87.016 E155.83691
G1 X98.571 Y86.777 E155.87478
G1 X100.002 Y86.712 E155.91531
G1 X101.32 Y86.766 E155.95263
G1 X102.746 Y87.018 E155.9936
G1 X103.988 Y87.405 E156.03041
G1 X105.176 Y87.928 E156.06714
G1 X106.266 Y88.555 E156.10272
G1 X107.29 Y89.317 E156.13883
G1 X108.214 Y90.166 E156.17434
G1 X109.061 Y91.113 E156.21028
G1 X109.804 Y92.142 E156.24619
G1 X110.459 Y93.237 E156.2823
G1 X110.997 Y94.391 E156.31832
G1 X111.434 Y95.567 E156.35382
G1 X111.758 Y96.766 E156.38896
G1 X111.956 Y97.819 E156.41928
G1 X112.081 Y98.903 E156.45015
G1 X112.104 Y100.543 E156.49656
G1 X112.014 Y101.629 E156.52739
G1 X111.673 Y103.251 E156.57428
G1 X111.596 Y103.516 E156.58208
G1 X111.166 Y104.766 E156.61947
G1 X110.897 Y105.394 E156.63879
G1 X110.509 Y106.204 E156.66419
G1 X109.994 Y107.104 E156.69352
G0 F7800 X109.552 Y106.868
G1 F918 X109.297 Y107.278 E156.70716
G1 X108.386 Y108.503 E156.75034
G1 X107.431 Y109.531 E156.79002
G1 X106.885 Y110.015 E156.81065
G1 X106.128 Y110.634 E156.83829
G1 X105.575 Y111.008 E156.85716
G1 X104.666 Y111.539 E156.88692
G1 X103.807 Y111.964 E156.91401
G1 X103.044 Y112.278 E156.93733
G1 X102.359 Y112.494 E156.95762
G1 X101.68 Y112.661 E156.97738
G1 X101.087 Y112.771 E156.99442
G1 X100.36 Y112.845 E157.01507
G1 X99.462 Y112.836 E157.04045
G1 X98.907 Y112.771 E157.05623
G1 X98.314 Y112.661 E157.07326
G1 X97.639 Y112.495 E157.09289
G1 X97 Y112.295 E157.1118
G1 X96.193 Y111.966 E157.13642
G1 X95.322 Y111.536 E157.16387
G1 X94.766 Y111.223 E157.18188
G1 X93.867 Y110.634 E157.21225
G1 X93.492 Y110.339 E157.22571
G1 X92.656 Y109.622 E157.25684
G1 X91.598 Y108.492 E157.30059
G1 X90.694 Y107.273 E157.34349
G1 X90.446 Y106.874 E157.35675
G1 X89.928 Y105.967 E157.38626
G1 X89.548 Y105.174 E157.41111
G1 X89.298 Y104.594 E157.42894
G1 X88.842 Y103.245 E157.46919
G1 X88.48 Y101.572 E157.51759
G1 X88.392 Y100.261 E157.55474
G1 X88.414 Y98.938 E157.59215
G1 X88.535 Y97.884 E157.62214
G1 X88.723 Y96.885 E157.65087
G1 X89.038 Y95.714 E157.68516
G1 X89.457 Y94.591 E157.71904
G1 X89.981 Y93.467 E157.75411
G1 X90.607 Y92.42 E157.7886
G1 X91.323 Y91.428 E157.82319
G1 X92.134 Y90.52 E157.85762
G1 X93.032 Y89.696 E157.89208
G1 X93.996 Y88.978 E157.92607
G1 X95.054 Y88.37 E157.96058
G1 X96.178 Y87.875 E157.99532
G1 X97.372 Y87.503 E158.0307
G1 X98.624 Y87.275 E158.0667
G1 X100.004 Y87.213 E158.10579
G1 X101.272 Y87.265 E158.14169
G1 X102.627 Y87.504 E158.18062
G1 X103.817 Y87.875 E158.21589
G1 X104.944 Y88.371 E158.25073
G1 X105.994 Y88.975 E158.28501
G1 X106.965 Y89.698 E158.31926
G1 X107.861 Y90.52 E158.35366
G1 X108.672 Y91.428 E158.38811
G1 X109.388 Y92.42 E158.42272
G1 X110.014 Y93.467 E158.45724
G1 X110.533 Y94.58 E158.49199
G1 X110.958 Y95.721 E158.52644
G1 X111.273 Y96.889 E158.56067
G1 X111.46 Y97.884 E158.58931
G1 X111.581 Y98.937 E158.6193
G1 X111.603 Y100.519 E158.66407
G1 X111.517 Y101.564 E158.69373
G1 X111.189 Y103.126 E158.73889
G1 X110.697 Y104.592 E158.78263
G1 X110.447 Y105.174 E158.80054
G1 X110.067 Y105.967 E158.82541
G1 X109.552 Y106.868 E158.85476
G0 F7800 X110.419 Y107.368
; TYPE:WALL-OUTER
G1 F642.6 X110.125 Y107.838 E158.87043
G1 X109.154 Y109.147 E158.91653
G1 X108.138 Y110.24 E158.95873
G1 X107.535 Y110.775 E158.98152
G1 X106.726 Y111.437 E159.01107
G1 X106.107 Y111.855 E159.03218
G1 X105.133 Y112.424 E159.06408
G1 X104.22 Y112.876 E159.09287
G1 X103.389 Y113.218 E159.11827
G1 X102.626 Y113.458 E159.14088
G1 X101.896 Y113.638 E159.16212
G1 X101.222 Y113.763 E159.18149
G1 X100.394 Y113.846 E159.20501
G1 X99.392 Y113.835 E159.23333
G1 X98.773 Y113.763 E159.25093
G1 X98.099 Y113.638 E159.2703
G1 X97.378 Y113.461 E159.29127
G1 X96.656 Y113.235 E159.31264
G1 X95.779 Y112.878 E159.33939
G1 X94.864 Y112.425 E159.36824
G1 X94.262 Y112.086 E159.38775
G1 X93.889 Y111.855 E159.40013
G1 X93.271 Y111.439 E159.42117
G1 X92.859 Y111.113 E159.43599
G1 X91.965 Y110.347 E159.46926
G1 X90.838 Y109.143 E159.51588
G1 X89.864 Y107.831 E159.56208
G1 X89.576 Y107.368 E159.57747
G1 X89.04 Y106.43 E159.608
G1 X88.642 Y105.599 E159.63403
G1 X88.362 Y104.944 E159.65415
G1 X87.874 Y103.502 E159.69718
G1 X87.487 Y101.715 E159.74888
G1 X87.391 Y100.291 E159.78924
G1 X87.415 Y98.869 E159.82945
G1 X87.543 Y97.751 E159.86126
G1 X87.751 Y96.647 E159.89302
G1 X88.083 Y95.414 E159.92912
G1 X88.534 Y94.203 E159.96566
G1 X89.096 Y93 E160.0032
G1 X89.771 Y91.869 E160.04044
G1 X90.545 Y90.798 E160.07781
G1 X91.422 Y89.817 E160.11502
G1 X92.396 Y88.923 E160.15241
G1 X93.442 Y88.143 E160.18931
G1 X94.598 Y87.478 E160.22703
G1 X95.828 Y86.937 E160.26504
G1 X97.137 Y86.529 E160.30382
G1 X98.512 Y86.279 E160.34336
G1 X99.999 Y86.212 E160.38547
G1 X101.383 Y86.268 E160.42466
G1 X102.858 Y86.529 E160.46705
G1 X104.167 Y86.937 E160.50584
G1 X105.397 Y87.478 E160.54386
G1 X106.546 Y88.14 E160.58138
G1 X107.605 Y88.928 E160.61873
G1 X108.573 Y89.817 E160.65592
G1 X109.45 Y90.798 E160.69315
G1 X110.224 Y91.869 E160.73054
G1 X110.899 Y93 E160.7678
G1 X111.461 Y94.203 E160.80537
G1 X111.911 Y95.414 E160.84192
G1 X112.244 Y96.647 E160.87806
G1 X112.452 Y97.752 E160.90988
G1 X112.58 Y98.869 E160.94169
G1 X112.604 Y100.556 E160.98942
G1 X112.51 Y101.698 E161.02184
G1 X112.157 Y103.376 E161.07035
G1 X112.072 Y103.669 E161.07898
G1 X111.636 Y104.938 E161.11693
G1 X111.352 Y105.599 E161.13728
G1 X110.955 Y106.43 E161.16333
G1 X110.419 Y107.368 E161.19388
G0 F7800 X109.154 Y106.632
; TYPE:FILL
G1 F1836 X94.488 Y110.561 E161.62345
G0 F7800 X94.59 Y110.628
G1 F1836 X100.71 Y87.787 E162.29248
G0 F7800 X100.803 Y87.993
G1 F1836 X101.296 Y87.854 E162.30584
G1 X101.9 Y87.957 E162.31766
G1 X102.496 Y88.068 E162.3296
G1 X103.043 Y88.228 E162.34024
G1 X103.581 Y88.397 E162.3509
G1 X103.958 Y88.374 E162.36159
G0 F7800 X104.123 Y88.568
G1 F1836 X91.451 Y91.964 E162.73276
G0 F7800 X91.685 Y91.685
G1 F1836 X108.115 Y108.115 E163.39019
G0 F7800 X107.426 Y108.948
G1 F1836 X106.968 Y109.406 E163.40849
G0 F7800 X106.443 Y109.858
G1 F1836 X110.356 Y95.255 E163.83622
G0 F7800 X110.156 Y94.716
G1 F1836 X88.804 Y100.438 E164.46165
G0 F7800 X88.899 Y100.605
G1 F1836 X88.951 Y100.906 E164.46471
G1 X89.017 Y101.547 E164.47332
G1 X88.971 Y101.947 E164.48471
G0 F7800 X89.071 Y102.248
G1 F1836 X92.003 Y91.306 E164.8052
G0 F7800 X91.22 Y92.627
G0 X91.22 Y92.627
G1 F1836 X90.544 Y93.303 E164.83223
G0 F7800 X89.721 Y95.025
G0 X89.721 Y95.025
G1 F1836 X105.363 Y110.667 E165.45813
G0 F7800 X101.937 Y112.185
G0 X101.937 Y112.185
G1 F1836 X107.631 Y90.935 E166.08056
G0 F7800 X107.726 Y90.97
G1 F1836 X107.374 Y90.968 E166.08735
G1 X107.189 Y90.446 E166.09448
G1 X106.629 Y90.299 E166.10151
G1 X106.425 Y89.795 E166.10937
G1 X105.817 Y89.696 E166.11695
G1 X105.596 Y89.21 E166.12554
G1 X104.929 Y89.171 E166.13411
G1 X104.925 Y88.821 E166.14399
G0 F7800 X104.77 Y88.86
G1 F1836 X109.738 Y93.828 E166.34278
G0 F7800 X109.764 Y93.881
G1 F1836 X109.494 Y93.798 E166.3483
G1 X109.312 Y93.272 E166.35446
G1 X109.039 Y92.838 E166.36033
G1 X108.834 Y92.336 E166.36664
G1 X108.377 Y92.086 E166.37261
G1 X108.39 Y91.72 E166.38294
G0 F7800 X108.064 Y91.394
G1 F1836 X89.257 Y96.434 E166.93382
G0 F7800 X88.806 Y99.412
G0 X88.806 Y99.412
G1 F1836 X101.649 Y112.256 E167.44774
G0 F7800 X98.055 Y112.184
G1 F1836 X104.355 Y88.673 E168.13641
G0 F7800 X104.449 Y88.59
G1 F1836 X104.211 Y88.828 E168.14591
G0 F7800 X100.457 Y87.632
G0 X100.457 Y87.632
G1 F1836 X99.947 Y87.788 E168.15868
G1 X99.21 Y87.818 E168.17294
G1 X98.644 Y88.031 E168.19002
G0 F7800 X98.467 Y87.86
G1 F1836 X111.184 Y100.578 E168.6989
G0 F7800 X110.995 Y100.429
G1 F1836 X111.156 Y100.621 E168.70507
G1 X110.978 Y101.506 E168.71585
G1 X110.747 Y102.091 E168.73363
G0 F7800 X110.909 Y102.279
G1 F1836 X91.418 Y107.502 E169.30454
G0 F7800 X91.291 Y107.405
G1 F1836 X91.473 Y107.223 E169.31181
G0 F7800 X91.509 Y107.636
G1 F1836 X96.698 Y88.272 E169.879
G0 F7800 X96.817 Y88.444
G1 F1836 X97.551 Y88.063 E169.8993
G1 X98.212 Y87.756 E169.91991
G0 F7800 X96.293 Y88.261
G0 X96.293 Y88.261
G1 F1836 X95.68 Y88.874 E169.94442
G0 F7800 X94.966 Y88.881
G1 F1836 X94.139 Y89.707 E169.97747
G0 F7800 X94.54 Y89.236
G1 F1836 X110.094 Y104.791 E170.59987
G0 F7800 X110.179 Y104.78
G1 F1836 X109.627 Y105.332 E170.62193
G0 F7800 X109.478 Y106.189
G1 F1836 X108.7 Y106.966 E170.65303
G0 F7800 X110.145 Y104.108
G0 X110.145 Y104.108
G1 F1836 X110.545 Y103.353 E170.67051
G1 X110.875 Y102.671 E170.69192
G0 F7800 X111.109 Y98.343
G0 X111.109 Y98.343
G1 F1836 X89.627 Y104.099 E171.32115
G0 F7800 X89.577 Y104.169
G1 F1836 X89.592 Y103.8 E171.32951
G1 X89.409 Y103.277 E171.33733
G1 X89.27 Y102.708 E171.34616
G1 X89.297 Y102.328 E171.35691
G0 F7800 X89.988 Y104.465
G0 X89.988 Y104.465
G1 F1836 X89.98 Y104.827 E171.36556
G1 X90.205 Y105.308 E171.37349
G1 X90.439 Y105.782 E171.38154
G1 X90.692 Y106.236 E171.38918
G1 X90.859 Y106.776 E171.39683
G1 X91.189 Y106.8 E171.40619
G0 F7800 X91.064 Y106.974
G1 F1836 X94.961 Y110.871 E171.56213
G0 F7800 X93.444 Y109.495
G0 X93.444 Y109.495
G1 F1836 X93.107 Y109.478 E171.56799
G1 X92.899 Y108.979 E171.57424
G1 X92.404 Y108.766 E171.58009
G1 X92.232 Y108.232 E171.58633
G1 X91.742 Y108.014 E171.59347
G1 X91.758 Y107.645 E171.60389
G0 F7800 X107.897 Y91.506
G0 X107.897 Y91.506
G1 F1836 X108.06 Y91.344 E171.61037
G0 F7800 X110.944 Y106.06
G0 X110.944 Y106.06
G0 X111.259 Y106.211
G0 X111.259 Y106.211 Z3.7
; LAYER:8
G0 X111.259 Y106.211
G0 X110.814 Y105.983
; TYPE:WALL-INNER
G1 F936 X109.999 Y107.421 E171.65713
G1 X109.085 Y108.692 E171.70141
G1 X108.771 Y109.058 E171.71503
G1 X108.035 Y109.854 E171.74569
G1 X107.695 Y110.17 E171.7588
G1 X106.827 Y110.913 E171.79111
G1 X105.636 Y111.727 E171.8319
G1 X105.413 Y111.858 E171.83919
G1 X103.879 Y112.616 E171.88758
G1 X103.247 Y112.853 E171.90665
G1 X102.385 Y113.116 E171.93213
G1 X101.717 Y113.278 E171.95155
G1 X101.168 Y113.379 E171.96731
G1 X100.597 Y113.45 E171.98357
G1 X99.442 Y113.455 E172.01622
G1 X98.945 Y113.397 E172.03034
G1 X98.415 Y113.304 E172.04554
G1 X97.602 Y113.114 E172.06913
G1 X96.769 Y112.861 E172.09372
G1 X96.197 Y112.65 E172.11094
G1 X94.433 Y111.772 E172.16665
G1 X93.28 Y110.997 E172.20592
G1 X92.3 Y110.17 E172.24216
G1 X91.957 Y109.852 E172.25535
G1 X90.9 Y108.679 E172.29999
G1 X89.992 Y107.416 E172.34396
G1 X89.215 Y106.057 E172.38822
G1 X88.575 Y104.571 E172.43396
G1 X88.107 Y103.037 E172.4793
G1 X87.963 Y102.352 E172.49907
G1 X87.833 Y101.427 E172.52547
G1 X87.746 Y100.519 E172.55125
G1 X87.784 Y98.953 E172.59554
G1 X87.889 Y97.917 E172.62498
G1 X88.151 Y96.541 E172.66458
G1 X88.491 Y95.344 E172.69976
G1 X88.939 Y94.166 E172.7354
G1 X89.503 Y93.005 E172.77189
G1 X90.157 Y91.92 E172.80771
G1 X90.918 Y90.895 E172.84381
G1 X91.767 Y89.954 E172.87965
G1 X92.713 Y89.094 E172.9158
G1 X93.726 Y88.358 E172.95122
G1 X94.831 Y87.719 E172.98732
G1 X96.007 Y87.203 E173.02364
G1 X97.258 Y86.826 E173.0606
G1 X98.606 Y86.586 E173.09934
G1 X99.998 Y86.507 E173.13879
G1 X101.389 Y86.586 E173.17821
G1 X102.737 Y86.826 E173.21695
G1 X103.988 Y87.203 E173.25391
G1 X105.164 Y87.719 E173.29025
G1 X106.268 Y88.358 E173.32634
G1 X107.282 Y89.094 E173.36179
G1 X108.228 Y89.954 E173.39797
G1 X109.077 Y90.895 E173.43383
G1 X109.832 Y91.912 E173.46967
G1 X110.5 Y93.022 E173.50632
G1 X111.052 Y94.157 E173.54203
G1 X111.504 Y95.346 E173.57802
G1 X111.845 Y96.544 E173.61326
G1 X112.086 Y97.768 E173.64856
G1 X112.196 Y98.758 E173.67675
G1 X112.248 Y100.6 E173.72888
G1 X112.123 Y101.778 E173.7624
G1 X112.033 Y102.347 E173.77869
G1 X111.888 Y103.037 E173.79864
G1 X111.532 Y104.248 E173.83434
G1 X111.421 Y104.571 E173.844
G1 X110.814 Y105.983 E173.88747
G0 F7800 X110.365 Y105.761
G1 F936 X109.521 Y107.236 E173.93554
G1 X108.698 Y108.374 E173.97526
G1 X108.378 Y108.747 E173.98915
G1 X107.687 Y109.494 E174.01792
G1 X107.337 Y109.819 E174.03142
G1 X106.529 Y110.512 E174.06151
G1 X105.375 Y111.3 E174.10103
G1 X105.179 Y111.415 E174.10743
G1 X103.668 Y112.162 E174.1551
G1 X103.089 Y112.379 E174.17257
G1 X102.242 Y112.637 E174.19759
G1 X101.63 Y112.786 E174.21539
G1 X101.087 Y112.885 E174.23098
G1 X100.566 Y112.95 E174.2458
G1 X99.473 Y112.955 E174.2767
G1 X98.998 Y112.899 E174.2902
G1 X98.526 Y112.817 E174.30373
G1 X97.743 Y112.634 E174.32644
G1 X96.914 Y112.382 E174.35092
G1 X96.393 Y112.189 E174.36661
G1 X94.688 Y111.341 E174.42045
G1 X93.584 Y110.599 E174.45805
G1 X92.64 Y109.802 E174.49296
G1 X92.304 Y109.492 E174.50586
G1 X91.296 Y108.372 E174.54845
G1 X90.419 Y107.155 E174.59085
G1 X89.661 Y105.83 E174.63401
G1 X89.01 Y104.298 E174.68107
G1 X88.591 Y102.908 E174.72211
G1 X88.456 Y102.267 E174.74061
G1 X88.332 Y101.385 E174.76578
G1 X88.246 Y100.518 E174.7904
G1 X88.284 Y98.989 E174.83365
G1 X88.386 Y97.982 E174.86226
G1 X88.639 Y96.652 E174.90053
G1 X88.969 Y95.495 E174.93455
G1 X89.401 Y94.358 E174.96894
G1 X89.935 Y93.258 E175.00351
G1 X90.579 Y92.19 E175.03877
G1 X91.304 Y91.214 E175.07315
G1 X92.122 Y90.306 E175.10771
G1 X93.024 Y89.486 E175.14218
G1 X94.003 Y88.776 E175.17638
G1 X95.056 Y88.167 E175.21078
G1 X96.18 Y87.673 E175.24551
G1 X97.37 Y87.315 E175.28066
G1 X98.673 Y87.083 E175.31811
G1 X99.998 Y87.008 E175.35566
G1 X101.322 Y87.082 E175.39318
G1 X102.625 Y87.315 E175.43063
G1 X103.815 Y87.673 E175.46579
G1 X104.935 Y88.165 E175.5004
G1 X105.995 Y88.779 E175.53506
G1 X106.971 Y89.486 E175.56916
G1 X107.873 Y90.306 E175.60365
G1 X108.691 Y91.214 E175.63823
G1 X109.419 Y92.194 E175.67277
G1 X110.054 Y93.249 E175.70761
G1 X110.596 Y94.363 E175.74266
G1 X111.028 Y95.5 E175.77708
G1 X111.36 Y96.668 E175.81144
G1 X111.591 Y97.838 E175.84518
G1 X111.696 Y98.791 E175.87231
G1 X111.747 Y100.584 E175.92306
G1 X111.627 Y101.723 E175.95546
G1 X111.544 Y102.244 E175.97038
G1 X111.402 Y102.92 E175.98992
G1 X111.062 Y104.075 E176.02398
G1 X110.952 Y104.396 E176.03357
G1 X110.365 Y105.761 E176.0756
G0 F7800 X111.259 Y106.211
; TYPE:WALL-OUTER
G1 F655.2 X110.424 Y107.686 E176.12355
G1 X109.482 Y108.995 E176.16916
G1 X109.138 Y109.397 E176.18411
G1 X108.383 Y110.214 E176.21557
G1 X108.02 Y110.55 E176.22954
G1 X107.132 Y111.311 E176.26261
G1 X105.91 Y112.146 E176.30446
G1 X105.653 Y112.296 E176.31286
G1 X104.073 Y113.077 E176.3627
G1 X103.401 Y113.33 E176.38299
G1 X102.519 Y113.598 E176.40905
G1 X101.824 Y113.767 E176.42926
G1 X101.249 Y113.872 E176.44577
G1 X100.628 Y113.95 E176.46345
G1 X99.41 Y113.955 E176.49788
G1 X98.872 Y113.892 E176.51318
G1 X98.32 Y113.796 E176.529
G1 X97.481 Y113.6 E176.55334
G1 X96.599 Y113.331 E176.5794
G1 X95.994 Y113.108 E176.5976
G1 X94.183 Y112.207 E176.6548
G1 X92.977 Y111.396 E176.69588
G1 X91.982 Y110.556 E176.73268
G1 X91.597 Y110.2 E176.74748
G1 X90.515 Y108.999 E176.79318
G1 X89.758 Y107.963 E176.82944
G1 X89.569 Y107.682 E176.83899
G1 X88.767 Y106.281 E176.88462
G1 X88.109 Y104.754 E176.93163
G1 X87.624 Y103.169 E176.97849
G1 X87.47 Y102.436 E176.99965
G1 X87.338 Y101.497 E177.02645
G1 X87.258 Y100.765 E177.04725
G1 X87.245 Y100.514 E177.05434
G1 X87.285 Y98.929 E177.09917
G1 X87.395 Y97.843 E177.13002
G1 X87.665 Y96.422 E177.17092
G1 X88.013 Y95.197 E177.20693
G1 X88.484 Y93.957 E177.24443
G1 X89.06 Y92.773 E177.28166
G1 X89.741 Y91.642 E177.31899
G1 X90.533 Y90.576 E177.35654
G1 X91.417 Y89.596 E177.39386
G1 X92.392 Y88.709 E177.43114
G1 X93.458 Y87.935 E177.4684
G1 X94.602 Y87.273 E177.50578
G1 X95.834 Y86.733 E177.54383
G1 X97.139 Y86.34 E177.58238
G1 X98.548 Y86.088 E177.62288
G1 X99.998 Y86.007 E177.66397
G1 X101.447 Y86.088 E177.70503
G1 X102.856 Y86.34 E177.74553
G1 X104.161 Y86.733 E177.78409
G1 X105.393 Y87.273 E177.82215
G1 X106.536 Y87.935 E177.85952
G1 X107.603 Y88.709 E177.89682
G1 X108.578 Y89.596 E177.93411
G1 X109.462 Y90.576 E177.97146
G1 X110.254 Y91.642 E178.00903
G1 X110.934 Y92.773 E178.04637
G1 X111.511 Y93.957 E178.08364
G1 X111.982 Y95.197 E178.12117
G1 X112.333 Y96.431 E178.15747
G1 X112.58 Y97.687 E178.19369
G1 X112.695 Y98.723 E178.22318
G1 X112.748 Y100.616 E178.27676
G1 X112.618 Y101.852 E178.31192
G1 X112.527 Y102.425 E178.32833
G1 X112.371 Y103.166 E178.34975
G1 X112.01 Y104.396 E178.38601
G1 X111.89 Y104.744 E178.39642
G1 X111.259 Y106.211 E178.44159
G0 F7800 X109.94 Y105.698
; TYPE:FILL
G1 F1872 X109.962 Y105.366 E178.44875
G1 X109.99 Y105.04 E178.45798
G0 F7800 X110.253 Y104.95
G1 F1872 X94.388 Y89.085 E179.09276
G0 F7800 X94.567 Y88.91
G1 F1872 X94.534 Y89.23 E179.10029
G1 X93.923 Y89.326 E179.10763
G1 X93.684 Y89.795 E179.1143
G1 X93.121 Y89.939 E179.12126
G1 X92.901 Y90.426 E179.12712
G1 X92.389 Y90.621 E179.13334
G1 X92.358 Y90.944 E179.14252
G0 F7800 X92.106 Y90.921
G1 F1872 X88.968 Y102.631 E179.48553
G0 F7800 X89.167 Y102.602
G1 F1872 X88.993 Y102.782 E179.4973
G1 X89.437 Y103.579 E179.52311
G0 F7800 X89.437 Y104.15
G1 F1872 X111.239 Y98.308 E180.16173
G0 F7800 X111.329 Y100.723
G0 X111.329 Y100.723
G1 F1872 X98.27 Y87.664 E180.68424
G0 F7800 X98.182 Y87.575
G1 F1872 X98.615 Y87.655 E180.6946
G1 X99.273 Y87.605 E180.70651
G1 X99.951 Y87.577 E180.71846
G1 X100.479 Y87.751 E180.73419
G0 F7800 X100.769 Y87.565
G1 F1872 X94.552 Y110.768 E181.41385
G0 F7800 X94.315 Y110.608
G1 F1872 X109.419 Y106.561 E181.85627
G0 F7800 X109.425 Y106.597
G1 F1872 X109.472 Y106.29 E181.86275
G1 X109.52 Y105.984 E181.87149
G0 F7800 X108.99 Y106.869
G1 F1872 X109.016 Y107.248 E181.87845
G1 X108.565 Y107.504 E181.88446
G1 X108.572 Y107.864 E181.89465
G0 F7800 X108.245 Y108.245
G1 F1872 X91.551 Y91.551 E182.5626
G1 X91.694 Y91.694 E182.56832
G0 F7800 X92.024 Y91.317
G1 F1872 X91.879 Y91.172 E182.57409
G0 F7800 X91.19 Y92.034
G1 F1872 X104.459 Y88.478 E182.96276
G0 F7800 X104.413 Y88.458
G1 F1872 X98.027 Y112.289 E183.66082
G0 F7800 X95.274 Y111.184
G0 X95.274 Y111.184
G1 F1872 X90.472 Y106.382 E183.85293
G0 F7800 X90.518 Y106.074
G1 F1872 X89.914 Y105.117 E183.87506
G1 X89.441 Y104.29 E183.90198
G0 F7800 X90.969 Y107.232
G0 X90.969 Y107.232
G1 F1872 X92.068 Y108.332 E183.94598
G0 F7800 X91.447 Y107.866
G1 F1872 X96.768 Y88.009 E184.52761
G0 F7800 X96.719 Y88.234
G1 F1872 X96.334 Y88.202 E184.537
G1 X95.837 Y88.411 E184.54529
G1 X95.347 Y88.629 E184.55374
G1 X95.016 Y88.652 E184.5631
G0 F7800 X97.027 Y87.835
G0 X97.027 Y87.835
G1 F1872 X97.42 Y87.873 E184.57231
G1 X97.843 Y87.943 E184.58444
G0 F7800 X100.892 Y87.457
G0 X100.892 Y87.457
G1 F1872 X101.46 Y87.672 E184.5977
G1 X102.317 Y87.821 E184.61267
G1 X103.285 Y88.082 E184.62991
G1 X104.086 Y88.53 E184.65588
G0 F7800 X104.331 Y88.421
G1 F1872 X110.034 Y94.124 E184.88408
